!!!!SEGMENT: pl-wtm--r-1018_kurpinski-karol-kazimierz--polonez.krn
!!!cenid: 18xx:2300
!!!COM: Kurpiński, Karol Kazimierz
!!!COM-rismID: pe30018952
!!!CDT: 1785/03/06-1857/09/18
!!!CNT: Polish
!!!OTL: Polonez
!!!PDT: 1824
!!!AGN: Secular; Polonaise
!!!SMS-siglum: PL-Wtm
!!!SMS-shelfmark: R 1018
!!!SMS-shelfwork: W
!!!SMS-variant:
!!!SMS-altvar:
!!!NIFC-rismSourceID: 1001087020
!!!NIFC-islandoraID:
!!!URL-pdf-islandora:
!!!URL-scan:
!!!ONB-nifc:
!!!AIN: 1 clars 1 cor 2 empty 1 fagot 1 oboe 2 picco 1 timpa 1 tromp 1 viola 1 violn
!!!key:
**kern	**dynam	**kern	**dynam	**kern	**dynam	**kern	**dynam	**kern	**dynam	**kern	**dynam	**kern	**dynam	**kern	**dynam	**kern	**dynam	**kern	**dynam	**kern	**dynam	**kern	**dynam
*group3	*	*group3	*	*group3	*	*group3	*	*	*	*group2	*	*group1	*	*group2	*	*group1	*	*group1	*	*group1	*	*group1	*
*part12	*part12	*part11	*part11	*part10	*part10	*part9	*part9	*part8	*part8	*part7	*part7	*part6	*part6	*part5	*part5	*part4	*part4	*part3	*part3	*part2	*part2	*part1	*part1
*staff12	*	*staff11	*	*staff10	*	*staff9	*	*staff8	*	*staff7	*	*staff6	*	*staff5	*	*staff4	*	*staff3	*	*staff2	*	*staff1	*
*Iempty	*	*Iviola	*	*Iempty	*	*Ivioln	*	*Itimpa	*	*Itromp	*	*Ifagot	*	*Icor	*	*Ioboe	*	*Iclars	*	*Ipicco	*	*Ipicco	*
*I"Baſsi	*	*I"Viole	*	*I"2	*	*I"V: I	*	*I"Tympa	*	*I"Trombe	*	*I"Fag	*	*I"Corni in D	*	*I"Oboi	*	*I"Clarinetti in C	*	*I"Picolino 2do	*	*I"Picolino 1mo	*
*>[A,A,B,B,C,C,D,D1,D,D2,A,B]	*	*>[A,A,B,B,C,C,D,D1,D,D2,A,B]	*	*>[A,A,B,B,C,C,D,D1,D,D2,A,B]	*	*>[A,A,B,B,C,C,D,D1,D,D2,A,B]	*	*>[A,A,B,B,C,C,D,D1,D,D2,A,B]	*	*>[A,A,B,B,C,C,D,D1,D,D2,A,B]	*	*>[A,A,B,B,C,C,D,D1,D,D2,A,B]	*	*>[A,A,B,B,C,C,D,D1,D,D2,A,B]	*	*>[A,A,B,B,C,C,D,D1,D,D2,A,B]	*	*>[A,A,B,B,C,C,D,D1,D,D2,A,B]	*	*>[A,A,B,B,C,C,D,D1,D,D2,A,B]	*	*>[A,A,B,B,C,C,D,D1,D,D2,A,B]	*
*>A	*	*>A	*	*>A	*	*>A	*	*>A	*	*>A	*	*>A	*	*>A	*	*>A	*	*>A	*	*>A	*	*>A	*
*clefF4	*	*clefC3	*	*clefG2	*	*clefG2	*	*clefF4	*	*clefG2	*	*clefF4	*	*clefG2	*	*clefG2	*	*clefG2	*	*clefG2	*	*clefG2	*
*	*	*	*	*	*	*	*	*	*	*ITrd-1c-2	*	*	*	*ITrd-1c-2	*	*	*	*	*	*ITrd0c0	*	*ITrd0c0	*
*k[f#c#]	*	*k[f#c#]	*	*k[f#c#]	*	*k[f#c#]	*	*k[f#c#]	*	*k[f#c#]	*	*k[f#c#]	*	*k[f#c#]	*	*k[f#c#]	*	*k[f#c#]	*	*k[f#c#]	*	*k[f#c#]	*
*D:	*	*D:	*	*D:	*	*D:	*	*D:	*	*	*	*D:	*	*	*	*D:	*	*D:	*	*D:	*	*D:	*
*M3/4	*	*M3/4	*	*M3/4	*	*M3/4	*	*M3/4	*	*M3/4	*	*M3/4	*	*M3/4	*	*M3/4	*	*M3/4	*	*M3/4	*	*M3/4	*
=1	=1	=1	=1	=1	=1	=1	=1	=1	=1	=1	=1	=1	=1	=1	=1	=1	=1	=1	=1	=1	=1	=1	=1
*2\right	*	*2\right	*	*2\right	*	*2\right	*	*2\right	*	*2\right	*	*2\right	*	*2\right	*	*2\right	*	*2\right	*	*2\right	*	*2\right	*
*	*	*tremolo	*	*tremolo	*	*tremolo	*	*tremolo	*	*	*	*	*	*	*	*	*	*	*	*	*	*	*
!LO:TX:t=P:all\right:problem	!	!LO:TX:t=P:all\right:problem	!	!LO:TX:t=P:all\right:problem	!	!LO:TX:t=P:all\right:problem	!	!LO:TX:t=P:all\right:problem	!	!LO:TX:t=P:all\right:problem	!	!LO:TX:t=P:all\right:problem	!	!LO:TX:t=P:all\right:problem	!	!LO:TX:t=P:all\right:problem	!	!LO:TX:t=P:all\right:problem	!	!LO:TX:t=P:all\right:problem	!	!LO:TX:t=P:all\right:problem	!
!	!	!	!	!	!	!	!	!	!	!	!	!	!	!	!	!	!	!	!	!	!	!LO:TX:a:t=Polonaiſe na dzień 11 wrzesnia r&colon; 1824 [9?] jako w doroczną uroczystość Imienin najasnieyszego Cesarza Krola Polskiego&colon; tegoż dnia\nexekwowany w Teatrze War&colon; przez Wielką Orkiestrę.\nskompo&colon; przez K&colon; Kurpińſkiego	!
!LO:TX:b:i:t=forza	!	!	!	!	!	!	!	!	!	!	!	!LO:TX:a:i:t=Col b.	!	!	!	!	!	!	!	!	!	!LO:TX:t=P:problem=na pierwszych dwóch stronach oba Piccolo zanotowane na jednej pięciolinii i nazwane due Picciolini. Dopiero od s. 3 partie są rozdzielone na dwie pięciolinie	!
.	.	.	.	32qqB/	ff	32qqf#/	ff	.	.	.	.	.	.	.	.	.	.	.	.	.	.	.	.
8.BB/L	ff	32bLLL 32d\	ff	32ddLLL 32f#\	.	32bbLLL 32dd\	.	32D/LLL	ff	[2.dd [2.f#/	ff	8.BByy/L	ffyy	[2.ff# [2.dd/	ff	[2.bb [2.dd\	ff	[2.dd [2.b/	ff	2.dd>\	.	2.bb/	ff
!	!	!	!	!	!	!	!	!LO:TX:t=P:problem=dwie nuty na początku określanjące strój kotłów,\nbrak znaków przykluczowych, ale wysokości nut jak bez transpozycji	!	!	!	!	!	!	!	!	!	!	!	!	!	!	!
.	.	32b 32d\	.	32dd 32f#\	.	32bb 32dd\	.	32D/	.	.	.	.	.	.	.	.	.	.	.	.	.	.	.
.	.	32b 32d\	.	32dd 32f#\	.	32bb 32dd\	.	32D/	.	.	.	.	.	.	.	.	.	.	.	.	.	.	.
.	.	32b 32d\	.	32dd 32f#\	.	32bb 32dd\	.	32D/	.	.	.	.	.	.	.	.	.	.	.	.	.	.	.
.	.	32b 32d\	.	32dd 32f#\	.	32bb 32dd\	.	32D/	.	.	.	.	.	.	.	.	.	.	.	.	.	.	.
.	.	32b 32d\	.	32dd 32f#\	.	32bb 32dd\	.	32D/	.	.	.	.	.	.	.	.	.	.	.	.	.	.	.
16BB/K	.	32b 32d\	.	32dd 32f#\	.	32bb 32dd\	.	32D/	.	.	.	16BByy/K	.	.	.	.	.	.	.	.	.	.	.
.	.	32b 32d\	.	32dd 32f#\	.	32bb 32dd\	.	32D/	.	.	.	.	.	.	.	.	.	.	.	.	.	.	.
8.D/	.	32b 32d\	.	32dd 32f#\	.	32bb 32dd\	.	32D/	.	.	.	8.Dyy/	.	.	.	.	.	.	.	.	.	.	.
.	.	32b 32d\	.	32dd 32f#\	.	32bb 32dd\	.	32D/	.	.	.	.	.	.	.	.	.	.	.	.	.	.	.
.	.	32b 32d\	.	32dd 32f#\	.	32bb 32dd\	.	32D/	.	.	.	.	.	.	.	.	.	.	.	.	.	.	.
.	.	32b 32d\	.	32dd 32f#\	.	32bb 32dd\	.	32D/	.	.	.	.	.	.	.	.	.	.	.	.	.	.	.
.	.	32b 32d\	.	32dd 32f#\	.	32bb 32dd\	.	32D/	.	.	.	.	.	.	.	.	.	.	.	.	.	.	.
.	.	32b 32d\	.	32dd 32f#\	.	32bb 32dd\	.	32D/	.	.	.	.	.	.	.	.	.	.	.	.	.	.	.
16D/K	.	32b 32d\	.	32dd 32f#\	.	32bb 32dd\	.	32D/	.	.	.	16Dyy/K	.	.	.	.	.	.	.	.	.	.	.
.	.	32b 32d\	.	32dd 32f#\	.	32bb 32dd\	.	32D/	.	.	.	.	.	.	.	.	.	.	.	.	.	.	.
8.F#/	.	32b 32d\	.	32dd 32f#\	.	32bb 32dd\	.	32D/	.	.	.	8.F#yy/	.	.	.	.	.	.	.	.	.	.	.
.	.	32b 32d\	.	32dd 32f#\	.	32bb 32dd\	.	32D/	.	.	.	.	.	.	.	.	.	.	.	.	.	.	.
.	.	32b 32d\	.	32dd 32f#\	.	32bb 32dd\	.	32D/	.	.	.	.	.	.	.	.	.	.	.	.	.	.	.
.	.	32b 32d\	.	32dd 32f#\	.	32bb 32dd\	.	32D/	.	.	.	.	.	.	.	.	.	.	.	.	.	.	.
.	.	32b 32d\	.	32dd 32f#\	.	32bb 32dd\	.	32D/	.	.	.	.	.	.	.	.	.	.	.	.	.	.	.
.	.	32b 32d\	.	32dd 32f#\	.	32bb 32dd\	.	32D/	.	.	.	.	.	.	.	.	.	.	.	.	.	.	.
16F#/Jk	.	32b 32d\	.	32dd 32f#\	.	32bb 32dd\	.	32D/	.	.	.	16F#yy/Jk	.	.	.	.	.	.	.	.	.	.	.
.	.	32bJJJ 32d\	.	32ddJJJ 32f#\	.	32bbJJJ 32dd\	.	32D/JJJ	.	.	.	.	.	.	.	.	.	.	.	.	.	.	.
=2	=2	=2	=2	=2	=2	=2	=2	=2	=2	=2	=2	=2	=2	=2	=2	=2	=2	=2	=2	=2	=2	=2	=2
*	*	*	*	*	*	*	*	*	*	*	*	*	*	*	*	*	*	*	*	*tremolo	*	*tremolo	*
8.B\L	.	32bLLL 32d\	.	32ddLLL 32f#\	.	32bbLLL 32dd\	.	32D/LLL	.	8dd]L 8f#/]	.	8.Byy\L	.	8ff#]L 8dd/]	.	2.bb] 2.dd\]	.	2.dd] 2.b/]	.	32dd>\LLL	.	(32bb\LLL	.
.	.	32b 32d\	.	32dd 32f#\	.	32bb 32dd\	.	32D/	.	.	.	.	.	.	.	.	.	.	.	32cc#>\	.	32aa#X\	.
.	.	32b 32d\	.	32dd 32f#\	.	32bb 32dd\	.	32D/	.	.	.	.	.	.	.	.	.	.	.	32dd>\	.	32bb\	.
.	.	32b 32d\	.	32dd 32f#\	.	32bb 32dd\	.	32D/	.	.	.	.	.	.	.	.	.	.	.	32cc#>\	.	32aa#\	.
.	.	32b 32d\	.	32dd 32f#\	.	32bb 32dd\	.	32D/	.	16r	.	.	.	16r	.	.	.	.	.	32dd>\	.	32bb\	.
.	.	32b 32d\	.	32dd 32f#\	.	32bb 32dd\	.	32D/	.	.	.	.	.	.	.	.	.	.	.	32cc#>\	.	32aa#\	.
16B\K	.	32b 32d\	.	32dd 32f#\	.	32bb 32dd\	.	32D/	.	32ddLL 32f#/	.	16Byy\K	.	32ff#LL 32dd/	.	.	.	.	.	32dd>\	.	32bb\	.
.	.	32b 32d\	.	32dd 32f#\	.	32bb 32dd\	.	32D/	.	32ddJJJ 32f#/	.	.	.	32ff#JJJ 32dd/	.	.	.	.	.	32cc#>\	.	32aa#\	.
*	*	*	*	*	*	*	*	*	*	*	*	*	*	*rep	*	*	*	*	*	*	*	*	*
8.F#\	.	32b 32d\	.	32dd 32f#\	.	32bb 32dd\	.	32D/	.	8ddL 8f#/	.	8.F#yy\	.	8ff#L 8dd/	.	.	.	.	.	32dd>\	.	32bb\	.
.	.	32b 32d\	.	32dd 32f#\	.	32bb 32dd\	.	32D/	.	.	.	.	.	.	.	.	.	.	.	32cc#>\	.	32aa#\	.
.	.	32b 32d\	.	32dd 32f#\	.	32bb 32dd\	.	32D/	.	.	.	.	.	.	.	.	.	.	.	32dd>\	.	32bb\	.
.	.	32b 32d\	.	32dd 32f#\	.	32bb 32dd\	.	32D/	.	.	.	.	.	.	.	.	.	.	.	32cc#>\	.	32aa#\	.
.	.	32b 32d\	.	32dd 32f#\	.	32bb 32dd\	.	32D/	.	16r	.	.	.	16r	.	.	.	.	.	32dd>\	.	32bb\	.
.	.	32b 32d\	.	32dd 32f#\	.	32bb 32dd\	.	32D/	.	.	.	.	.	.	.	.	.	.	.	32cc#>\	.	32aa#\	.
16F#\K	.	32b 32d\	.	32dd 32f#\	.	32bb 32dd\	.	32D/	.	32ddLL 32f#/	.	16F#yy\K	.	32ff#LL 32dd/	.	.	.	.	.	32dd>\	.	32bb\	.
.	.	32b 32d\	.	32dd 32f#\	.	32bb 32dd\	.	32D/	.	32ddJJJ 32f#/	.	.	.	32ff#JJJ 32dd/	.	.	.	.	.	32cc#>\	.	32aa#\	.
8.D\	.	32b 32d\	.	32dd 32f#\	.	32bb 32dd\	.	32D/	.	8ddL 8f#/	.	8.Dyy\	.	8ff#L 8dd/	.	.	.	.	.	32dd>\	.	32bb\	.
.	.	32b 32d\	.	32dd 32f#\	.	32bb 32dd\	.	32D/	.	.	.	.	.	.	.	.	.	.	.	32cc#>\	.	32aa#\	.
.	.	32b 32d\	.	32dd 32f#\	.	32bb 32dd\	.	32D/	.	.	.	.	.	.	.	.	.	.	.	32dd>\	.	32bb\	.
.	.	32b 32d\	.	32dd 32f#\	.	32bb 32dd\	.	32D/	.	.	.	.	.	.	.	.	.	.	.	32cc#>\	.	32aa#\	.
.	.	32b 32d\	.	32dd 32f#\	.	32bb 32dd\	.	32D/	.	16r	.	.	.	16r	.	.	.	.	.	32dd>\	.	32bb\	.
.	.	32b 32d\	.	32dd 32f#\	.	32bb 32dd\	.	32D/	.	.	.	.	.	.	.	.	.	.	.	32cc#>\	.	32aa#\	.
16D\Jk	.	32b 32d\	.	32dd 32f#\	.	32bb 32dd\	.	32D/	.	32ddLL 32f#/	.	16Dyy\Jk	.	32ff#LL 32dd/	.	.	.	.	.	32dd>\	.	32bb\	.
.	.	32bJJJ 32d\	.	32ddJJJ 32f#\	.	32bbJJJ 32dd\	.	32D/JJJ	.	32ddJJJ 32f#/	.	.	.	32ff#JJJ 32dd/	.	.	.	.	.	32cc#>\JJJ	.	32aa#\JJJ)	.
*	*	*Xtremolo	*	*Xtremolo	*	*Xtremolo	*	*Xtremolo	*	*	*	*	*	*Xrep	*	*	*	*	*	*Xtremolo	*	*Xtremolo	*
=3	=3	=3	=3	=3	=3	=3	=3	=3	=3	=3	=3	=3	=3	=3	=3	=3	=3	=3	=3	=3	=3	=3	=3
!LO:TX:b:i:t=sec	!	!	!	!	!	!	!	!LO:TX:b:i:t=sec	!	!	!	!LO:TX:b:i:t=sec	!	!	!	!LO:TX:b:i:t=sec	!	!LO:TX:b:i:t=sec	!	!	!	!	!
4BB/	.	4b 4d 4B\	.	4b 4f# 4B\	.	4bb 4dd 4f# 4B\	.	4D/	.	4dd 4f#/	.	4B 4BB/	.	4ff# 4dd/	.	4bb 4dd\	.	4dd 4b/	.	8dd>'\	.	8bb'\	.
.	.	.	.	.	.	.	.	.	.	.	.	.	.	.	.	.	.	.	.	8ryy	.	8r	.
4r	.	4r	.	4r	.	4r	.	4r	.	4r	.	4r	.	4r	.	4r	.	4r	.	4ryy	.	4r	.
4r	.	4r	.	4r	.	4r	.	4r	.	4r	.	4r	.	4r	.	4r	.	4r	.	4ryy	.	4r	.
=4	=4	=4	=4	=4	=4	=4	=4	=4	=4	=4	=4	=4	=4	=4	=4	=4	=4	=4	=4	=4	=4	=4	=4
*	*	*	*	*	*	*	*	*	*	*	*	*	*	*	*	*	*	*^	*	*	*	*	*
*	*	*	*	*Xtuplet	*	*Xtuplet	*	*	*	*	*	*	*	*	*	*	*	*Xtuplet	*	*	*	*	*Xtuplet	*
2.r	.	2.r	.	4r	.	4r	.	2.r	.	2.r	.	2.r	.	2.r	.	2.r	.	4r	2.rdd	.	2.ryy	.	4r	.
.	.	.	.	4r	.	4r	.	.	.	.	.	.	.	.	.	.	.	4r	.	.	.	.	4r	.
.	.	.	.	8r	.	8r	.	.	.	.	.	.	.	.	.	.	.	8r	.	.	.	.	8r	.
.	.	.	.	(40f#/LLL	.	(<40f#/LLL	.	.	.	.	.	.	.	.	.	.	.	40ff#/LLL	.	.	.	.	(40ff#\LLL	.
.	.	.	.	40g#X/	.	40g#X/	.	.	.	.	.	.	.	.	.	.	.	40gg#X/	.	.	.	.	40gg#X\	.
.	.	.	.	40a#X/	.	40a#X/	.	.	.	.	.	.	.	.	.	.	.	40aa#X/	.	.	.	.	40aa#X\	.
.	.	.	.	40b/	.	40b/	.	.	.	.	.	.	.	.	.	.	.	40bb/	.	.	.	.	40bb\	.
.	.	.	.	40cc#/JJJ)	.	40cc#/JJJ	.	.	.	.	.	.	.	.	.	.	.	40ccc#/JJJ	.	.	.	.	40ccc#\JJJ	.
*	*	*	*	*	*	*	*	*	*	*	*	*	*	*	*	*	*	*v	*v	*	*	*	*	*
=5	=5	=5	=5	=5	=5	=5	=5	=5	=5	=5	=5	=5	=5	=5	=5	=5	=5	=5	=5	=5	=5	=5	=5
*	*	*	*	*	*	*	*	*	*	*^	*	*	*	*^	*	*	*	*	*	*	*	*	*
8BB^</	ff	8d 8B^<\	.	8dd 8f#^<\	.	8dd\L)	.	8D\	.	8dd/	8f#\	.	8d 8B^<\	.	8ff#^/	8dd^<\	.	8ff#\ 8dd^<\	.	8ddd 8ff#^<\	.	8bb>\)	.	8ddd/)	.
8r	.	8r	.	8r	.	16r	.	8r	.	8r	8rdyy	.	8r	.	8r	8rdyy	.	8r	.	8r	.	8ryy	.	8rdd	.
.	.	.	.	.	.	(32ff#\LL	.	.	.	.	.	.	.	.	.	.	.	.	.	.	.	.	.	.	.
.	.	.	.	.	.	32dd\JJJ	.	.	.	.	.	.	.	.	.	.	.	.	.	.	.	.	.	.	.
8C#^</	.	8e 8c#^<\	.	8cc# 8a#X^<\	.	8cc#\L)	.	4r	.	8a/	4rdyy	.	8e 8B^<\	.	8ee^/	8cc#^<\	.	8aa#X 8ee 8cc#^<\	.	8ccc# 8ee^<\	.	8aa#>X\	.	8ccc#/	.
8r	.	8r	.	8r	.	16r	.	.	.	8r	.	.	8r	.	8r	8rdyy	.	8r	.	8r	.	8ryy	.	8rdd	.
.	.	.	.	.	.	(32dd\LL	.	.	.	.	.	.	.	.	.	.	.	.	.	.	.	.	.	.	.
.	.	.	.	.	.	32cc#\JJJ	.	.	.	.	.	.	.	.	.	.	.	.	.	.	.	.	.	.	.
8D^</	.	8f# 8d^<\	.	8b 8f#^</	.	8b/L)	.	4r	.	4r	4rdyy	.	8f# 8d^<\	.	8ff#^/	8dd^<\	.	8bb 8dd 8b^<\	.	8bb 8dd^<\	.	8bb>\	.	8bb/L	.
8r	.	8r	.	8r	.	16r	.	.	.	.	.	.	8r	.	8r	8rdyy	.	8r	.	8r	.	8r>	.	(40bb/LL	.
.	.	.	.	.	.	.	.	.	.	.	.	.	.	.	.	.	.	.	.	.	.	.	.	40ccc#/	.
.	.	.	.	.	.	.	.	.	.	.	.	.	.	.	.	.	.	.	.	.	.	.	.	40ddd/	.
.	.	.	.	.	.	(<80b/LLL	.	.	.	.	.	.	.	.	.	.	.	.	.	.	.	.	.	.	.
.	.	.	.	.	.	80cc#/	.	.	.	.	.	.	.	.	.	.	.	.	.	.	.	.	.	40eee/	.
.	.	.	.	.	.	80dd/	.	.	.	.	.	.	.	.	.	.	.	.	.	.	.	.	.	.	.
.	.	.	.	.	.	80ee/	.	.	.	.	.	.	.	.	.	.	.	.	.	.	.	.	.	40fff#/JJJ)	.
.	.	.	.	.	.	80ff#/JJJJ	.	.	.	.	.	.	.	.	.	.	.	.	.	.	.	.	.	.	.
*	*	*	*	*	*	*	*	*	*	*v	*v	*	*	*	*	*	*	*	*	*	*	*	*	*	*
*	*	*	*	*	*	*	*	*	*	*	*	*clefC4	*	*	*	*	*	*	*	*	*	*	*	*
=6	=6	=6	=6	=6	=6	=6	=6	=6	=6	=6	=6	=6	=6	=6	=6	=6	=6	=6	=6	=6	=6	=6	=6	=6
*	*	*	*	*	*	*	*	*	*	*	*	*	*	*	*	*	*^	*	*^	*	*	*	*	*
8E^<\	.	8g 8B\	.	8gg 8ee 8e\	.	8gg\L)	.	2.r	.	2.r	.	8g 8B\	.	8gg/	8ee\	.	8gg/	8b\	.	8gg/	8b\	.	8bb>\	.	8ggg/	.
8r	.	8r	.	8r	.	16r	.	.	.	.	.	8r	.	8r	8rdyy	.	8rdd	8rdd	.	8rdd	8rdd	.	8ryy	.	8rff	.
.	.	.	.	.	.	(32aa\LL	.	.	.	.	.	.	.	.	.	.	.	.	.	.	.	.	.	.	.	.
.	.	.	.	.	.	32gg\JJJ	.	.	.	.	.	.	.	.	.	.	.	.	.	.	.	.	.	.	.	.
8F#^<\	.	8f# 8A#X\	.	8ff# 8cc# 8f#\	.	8ff#\L)	.	.	.	.	.	8f# 8A#X\	.	8ff#/	8ff#\	.	8ff#/	8a#X\	.	8ff#/	8a#X\	.	8aa#>X\	.	8fff#/	.
8r	.	8r	.	8r	.	16r	.	.	.	.	.	8r	.	8r	8rdyy	.	8rdd	8rdd	.	8rdd	8rdd	.	8ryy	.	8rff	.
.	.	.	.	.	.	(32gg\LL	.	.	.	.	.	.	.	.	.	.	.	.	.	.	.	.	.	.	.	.
.	.	.	.	.	.	32ff#\JJJ	.	.	.	.	.	.	.	.	.	.	.	.	.	.	.	.	.	.	.	.
8A#X^<\	.	8f# 8c#\	.	8ee 8cc# 8f#\	.	8ee\L)	.	.	.	.	.	8e 8c#\	.	8ff#/	8f#\	.	8ee/	8cc#\	.	8ee/	8cc#\	.	8ccc#>\	.	8eee/	.
8r	.	8r	.	8r	.	16r	.	.	.	.	.	8r	.	8r	8rdyy	.	8rdd	8rdd	.	8rdd	8rdd	.	8ryy	.	8rff	.
.	.	.	.	.	.	(32ff#\LL	.	.	.	.	.	.	.	.	.	.	.	.	.	.	.	.	.	.	.	.
.	.	.	.	.	.	32ee\JJJ	.	.	.	.	.	.	.	.	.	.	.	.	.	.	.	.	.	.	.	.
*	*	*	*	*	*	*	*	*	*	*	*	*	*	*	*	*	*v	*v	*	*	*	*	*	*	*	*
*	*	*	*	*	*	*	*	*	*	*	*	*	*	*	*	*	*	*	*v	*v	*	*	*	*	*
=7	=7	=7	=7	=7	=7	=7	=7	=7	=7	=7	=7	=7	=7	=7	=7	=7	=7	=7	=7	=7	=7	=7	=7	=7
.	.	.	.	.	.	.	.	.	.	.	.	.	.	.	.	.	32qqff#/LLL	.	32qqff#/LLL	.	.	.	.	.
.	.	.	.	.	.	.	.	.	.	.	.	.	.	.	.	.	32qqgg#X/	.	32qqgg#X/	.	.	.	.	.
.	.	.	.	.	.	.	.	.	.	.	.	.	.	.	.	.	32qqaa#X/	.	32qqaa#X/	.	.	.	.	.
.	.	.	.	.	.	.	.	.	.	.	.	.	.	.	.	.	32qqbb/	.	32qqbb/	.	.	.	.	.
.	.	.	.	.	.	.	.	.	.	.	.	.	.	.	.	.	32qqccc#/JJJ	.	32qqccc#/JJJ	.	.	.	.	.
8B^<\	.	8f# 8d\	.	8dd 8f# 8B/	.	8dd\L)	.	2.r	.	2.r	.	8d 8B\	.	8ff#/	8f#\	.	8ddd 8b\	.	8ddd 8b\	.	2.ryy	.	8ddd\L	.
8r	.	8r	.	8r	.	16r	.	.	.	.	.	8r	.	8r	8r	.	8r	.	8r	.	.	.	16r	.
.	.	.	.	.	.	(32eee\LL	.	.	.	.	.	.	.	.	.	.	.	.	.	.	.	.	(32eee\LL	.
.	.	.	.	.	.	32ddd\JJJ	.	.	.	.	.	.	.	.	.	.	.	.	.	.	.	.	32ddd\JJJ	.
*	*	*	*	*	*	*	*	*	*	*	*	*clefF4	*	*	*	*	*	*	*	*	*	*	*	*
8E^<\	.	8e\	.	8cc# 8gn/	.	8ccc#\L)	.	.	.	.	.	8E\	.	8gg/	4ra	.	8ccc# 8g\	.	8ccc# 8cc#\	.	.	.	8ccc#\L)	.
8r	.	8r	.	8r	.	16r	.	.	.	.	.	8r	.	8r	.	.	8r	.	8r	.	.	.	16r	.
.	.	.	.	.	.	(32ddd\LL	.	.	.	.	.	.	.	.	.	.	.	.	.	.	.	.	(32ddd\LL	.
.	.	.	.	.	.	32ccc#\JJJ	.	.	.	.	.	.	.	.	.	.	.	.	.	.	.	.	32ccc#\JJJ	.
8E#X^<\	.	8e#X\	.	8b 8g#X 8c#/	.	8bb\L)	.	.	.	.	.	8E#X\	.	8gg#X/	4ra	.	8bb 8g#X\	.	8bb 8cc#\	.	.	.	8bb\L)	.
8r	.	8r	.	8r	.	16r	.	.	.	.	.	8r	.	8r	.	.	8r	.	8r	.	.	.	16r	.
.	.	.	.	.	.	(32ccc#\LL	.	.	.	.	.	.	.	.	.	.	.	.	.	.	.	.	(32ccc#\LL	.
.	.	.	.	.	.	32bb\JJJ)	.	.	.	.	.	.	.	.	.	.	.	.	.	.	.	.	32bb\JJJ)	.
*	*	*	*	*	*	*	*	*	*	*	*	*	*	*v	*v	*	*	*	*	*	*	*	*	*
=8	=8	=8	=8	=8	=8	=8	=8	=8	=8	=8	=8	=8	=8	=8	=8	=8	=8	=8	=8	=8	=8	=8	=8
*tremolo	*	*tremolo	*	*	*	*	*	*	*	*	*	*	*	*	*	*	*	*	*	*	*	*	*
8F#\L	fp	16f#\LL	.	4a#X 4c#/	.	8aa#X\	.	2.r	.	8r	.	8F#\L	.	8r	.	4aa#X 4a#X\	.	4ff# 4cc#\	.	4ryy	.	4aa#\	.
.	.	16f#\	.	.	.	.	.	.	.	.	.	.	.	.	.	.	.	.	.	.	.	.	.
8F#\	.	16f#\	.	.	.	8r	.	.	.	16ff#LL 16f#/	.	16f#L 16F#\	.	16ff#LL 16f#/	.	.	.	.	.	.	.	.	.
.	.	16f#\	.	.	.	.	.	.	.	16ff#JJ 16f#/	.	16f#JJ 16F#\	.	16ff#JJ 16f#/	.	.	.	.	.	.	.	.	.
8F#\	.	16f#\	.	8r	.	8r	.	.	.	2ff# [2f#/	.	[2f# [>2F#\	.	[2ff# [>2f#/	.	8r	.	8r	.	8ryy	.	8r	.
.	.	16f#\	.	.	.	.	.	.	.	.	.	.	.	.	.	.	.	.	.	.	.	.	.
8F#\	.	16f#\	.	16a#/LL	.	16cc#\LL	.	.	.	.	.	.	.	.	.	16aa#LL 16cc#\	.	16cc#LL 16a#X/	.	16aa#>\LL	.	16ccc#\LL	.
.	.	16f#\	.	16a#/JJ	.	16cc#\JJ	.	.	.	.	.	.	.	.	.	16aa#JJ 16cc#\	.	16cc#JJ 16a#/	.	16aa#>\JJ	.	16ccc#\JJ	.
8F#\	.	16f#\	.	(16a#^/LL	.	(16cc#^<\LL	.	.	.	.	.	.	.	.	.	(16aa#LL 16cc#^<\	.	(16cc#LL 16a#^>/	.	16aa#>^\LL	.	(16ccc#\LL	.
.	.	16f#\	.	16b/)	.	16dd\)	.	.	.	.	.	.	.	.	.	16bb 16dd\)	.	16dd 16b/)	.	16bb>\)	.	16ddd>\)	.
8F#\J	.	16f#\	.	16b'/	.	16dd'\	.	.	.	.	.	.	.	.	.	16bb 16dd\	.	16dd 16b'/	.	16bb>\	.	16ddd'>\	.
.	.	16f#\JJ	.	16b'/JJ	.	16dd'\JJ	.	.	.	.	.	.	.	.	.	16bbJJ 16dd\	.	16ddJJ 16b'/	.	16bb>\JJ	.	16ddd'\JJ	.
=9	=9	=9	=9	=9	=9	=9	=9	=9	=9	=9	=9	=9	=9	=9	=9	=9	=9	=9	=9	=9	=9	=9	=9
!	!	!	!	!	!	!	!	!	!	!	!	!	!	!	!	!	!	!	!	!	!	!LO:TX:a:i:t=Col Clarinetti in 8va	!
8F#\L	<	16f#\LL	.	(16b^/LL	.	(16dd^<\LL	.	2.r	.	2.ff# 2.f#/]	<[	2.f#] 2.F#\]	<[	2.ff#] 2.f#/]	<[	(16bbLL 16dd^<\	.	(16ddLL 16b^>/	.	16bbyy>\LL	.	(yy16ddd^yy\LL	.
.	.	16f#\	.	16b#X/)	.	16dd#X\)	.	.	.	.	.	.	.	.	.	16bb#X 16dd#X\)	.	16dd#X 16b#X/)	.	16bb#yyX>\	.	16ddd#yyX\)yy	.
8F#\	.	16f#\	.	16b#'/	.	16dd#'\	.	.	.	.	.	.	.	.	.	16bb# 16dd#'\	.	16dd# 16b#'/	.	16bb#yy>\	.	16ddd#yy'\	.
.	.	16f#\	.	16b#'/JJ	.	16dd#'\JJ	.	.	.	.	.	.	.	.	.	16bb#JJ 16dd#'\	.	16dd#JJ 16b#'/	.	16bb#yy>\JJ	.	16ddd#yy'\JJ	.
8F#\	.	16f#\	.	(16b#^/LL	.	(16dd#^<\LL	.	.	.	.	.	.	.	.	.	(16bb#LL 16dd#^<\	.	(16dd#LL 16b#^>/	.	16bb#yy>\LL	.	(yy16ddd#yy^\LL	.
.	.	16f#\	.	16cc#/)	.	16ee\)	.	.	.	.	.	.	.	.	.	16ccc# 16ee\)	.	16ee 16cc#/)	.	16ccc#yy>\	.	16eeeyy\)yy	.
8F#\	.	16f#\	.	16cc#'/	.	16ee'\	.	.	.	.	.	.	.	.	.	16ccc# 16ee'\	.	16ee 16cc#'/	.	16ccc#yy>\	.	16eeeyy'\	.
.	.	16f#\	.	16cc#'/JJ	.	16ee'\JJ	.	.	.	.	.	.	.	.	.	16ccc#JJ 16ee'\	.	16eeJJ 16cc#'/	.	16ccc#yy>\JJ	.	16eeeyy'\JJ	.
8F#\	.	16f#\	.	(16cc#^/LL	.	(16ee^<\LL	.	.	.	.	.	.	.	.	.	(16ccc#LL 16ee^<\	.	16eeLL 16cc#^>/	.	16ccc#yy>\LL	.	16eeeyy^\LL	.
.	.	16f#\	.	16bn/)	.	16ddn\)	.	.	.	.	.	.	.	.	.	16bbn 16ddn\)	.	16ddn 16bn/	.	16bbnyy>\	.	16dddnyy\	.
8F#\J	[	16f#\	.	16b'/	.	16dd'\	.	.	.	.	.	.	.	.	.	16bb 16dd'\	.	16dd 16b/	.	16bbyy>\	.	16dddyy\	.
.	.	16f#\JJ	.	16b'/JJ	.	16dd'\JJ	.	.	.	.	.	.	.	.	.	16bbJJ 16dd'\	.	16ddJJ 16b/	.	16bbyy>\JJ	.	16dddyy\JJ	.
!!LO:PB:g=original
=10	=10	=10	=10	=10	=10	=10	=10	=10	=10	=10	=10	=10	=10	=10	=10	=10	=10	=10	=10	=10	=10	=10	=10
*	*	*	*	*^	*	*^	*	*	*	*	*	*	*	*	*	*	*	*	*	*	*	*	*
8F#\L	fp	16ff#LL 16f#\	.	4a#X\	4.rcyy	.	4ff# 4cc# 4f#\	4.rcyy	.	2.r	.	8ff#L 8f#/	f	8f#L 8F#\	.	8ff#L 8f#/	f	4aa#X 4cc#\	.	4cc# 4a#X/	.	4aa#yyX>\	.	4ccc#yy\	.
.	.	16ff# 16f#\	.	.	.	.	.	.	.	.	.	.	.	.	.	.	.	.	.	.	.	.	.	.	.
8F#\	.	16ff# 16f#\	.	.	.	.	.	.	.	.	.	16ff#L 16f#/	.	16f#L 16F#\	.	16ff#L 16f#/	.	.	.	.	.	.	.	.	.
.	.	16ff# 16f#\	.	.	.	.	.	.	.	.	.	16ff#JJ 16f#/	.	16f#JJ 16F#\	.	16ff#JJ 16f#/	.	.	.	.	.	.	.	.	.
8F#\	.	16ff# 16f#\	.	8r	.	.	8r	.	.	.	.	[2ff# [2f#/	.	[2f# [2F#\	.	[2ff# [2f#/	.	8r	.	8r	.	8ryy	.	8ryy	.
.	.	16ff# 16f#\	.	.	.	.	.	.	.	.	.	.	.	.	.	.	.	.	.	.	.	.	.	.	.
8F#\	.	16ff# 16f#\	.	16a#X/LL	16f#\LL	.	16ff#/LL	16cc#\LL	.	.	.	.	.	.	.	.	.	16aa#LL 16cc#\	.	16cc#LL 16a#/	.	16aa#yy>\LL	.	16ccc#yy\LL	.
.	.	16ff# 16f#\	.	16a#/JJ	16f#\JJ	.	16ff#/JJ	16cc#\JJ	.	.	.	.	.	.	.	.	.	16aa#JJ 16cc#\	.	16cc#JJ 16a#/	.	16aa#yy>\JJ	.	16ccc#yy\JJ	.
8F#\	.	16ff# 16f#\	.	16a#/LL	8f#\L	.	8ff#/L	(16cc#\LL	.	.	.	.	.	.	.	.	.	16aa#LL 16cc#\	.	16cc#LL 16a#/	.	16aa#yy>\LL	.	16ccc#yy\LL	.
.	.	16ff# 16f#\	.	16b/	.	.	.	16ddn\)	.	.	.	.	.	.	.	.	.	16bb 16dd\	.	16dd 16b/	.	16bbyy>\	.	16dddyy\	.
8F#\J	.	16ff# 16f#\	.	16b/	16f#\L	.	16ff#'/L	16dd'\	.	.	.	.	.	.	.	.	.	16bb 16dd\	.	16dd 16b/	.	16bbyy>\	.	16dddyy\	.
.	.	16ff#JJ 16f#\	.	16b/JJ	16f#\JJ	.	16ff#'/JJ	16dd'\JJ	.	.	.	.	.	.	.	.	.	16bbJJ 16dd\	.	16ddJJ 16b/	.	16bbyy>\JJ	.	16dddyy\/JJ	.
=11	=11	=11	=11	=11	=11	=11	=11	=11	=11	=11	=11	=11	=11	=11	=11	=11	=11	=11	=11	=11	=11	=11	=11	=11	=11
8F#\L	<	16ff#LL 16f#\	.	16b/LL	8f#\L	.	[8ff#/L	(16dd\LL	.	2.r	.	2.ff#] 2.f#/]	<[	2.f#] 2.F#\]	<[	2.ff#] 2.f#/]	<[	16bbLL 16dd\	.	16ddLL 16b/	.	16bbyy>\LL	.	16dddyy\LL	.
.	.	16ff# 16f#\	.	16b#X/	.	.	.	16dd#X\)	.	.	.	.	.	.	.	.	.	16bb#X 16dd#X\	.	16dd#X 16b#X/	.	16bb#yy>X\	.	16ddd#yyX\	.
8F#\	.	16ff# 16f#\	.	16b#/	16f#\L	.	16ff#/L]	16dd#'\	.	.	.	.	.	.	.	.	.	16bb# 16dd#\	.	16dd# 16b#/	.	16bb#yy>\	.	16ddd#yy\	.
.	.	16ff# 16f#\	.	16b#/JJ	16f#\JJ	.	16ff#/JJ	16dd#'\JJ	.	.	.	.	.	.	.	.	.	16bb#JJ 16dd#\	.	16dd#JJ 16b#/	.	16bb#yy>\JJ	.	16ddd#yy\JJ	.
8F#\	.	16ff# 16f#\	.	16b#/LL	8f#\L	.	8ff#/L	(16dd#\LL	.	.	.	.	.	.	.	.	.	16bb#LL 16dd#\	.	16dd#LL 16b#/	.	16bb#yy>\LL	.	16ddd#yy\LL	.
.	.	16ff# 16f#\	.	16cc#/	.	.	.	16ee\)	.	.	.	.	.	.	.	.	.	16ccc# 16ee\	.	16ee 16cc#/	.	16ccc#yy>\	.	16eeeyy\	.
8F#\	[	16ff# 16f#\	.	16cc#/	16f#\L	.	16ff#/L	16ee'\	.	.	.	.	.	.	.	.	.	16ccc# 16ee\	.	16ee 16cc#/	.	16ccc#yy>\	.	16eeeyy\	.
.	.	16ff# 16f#\	.	16cc#/JJ	16f#\JJ	.	16ff#/JJ	16ee'\JJ	.	.	.	.	.	.	.	.	.	16ccc#JJ 16ee\	.	16eeJJ 16cc#/	.	16ccc#yy>\JJ	.	16eeeyy\JJ	.
8F#\	.	16ff# 16f#\	.	16cc#/LL	8f#\L	.	8ff#/L	16ee\LL	.	.	.	.	.	.	.	.	.	16ccc#LL 16ee\	.	16eeLL 16cc#/	.	16ccc#yy>\LL	.	16eeeyy\LL	.
.	.	16ff# 16f#\	.	16bn/	.	.	.	16ddn\	.	.	.	.	.	.	.	.	.	16bbn 16ddn\	.	16ddn 16bn/	.	16bbnyy>\	.	16dddnyy\	.
8F#\J	.	16ff# 16f#\	.	16b/	16f#\L	.	16ff#/L	16dd'\	.	.	.	.	.	.	.	.	.	16bb 16dd\	.	16dd 16b/	.	16bbyy>\	.	16dddyy\	.
.	.	16ff#JJ 16f#\	.	16b/JJ	16f#\JJ	.	16ff#/JJ	16dd'\JJ	.	.	.	.	.	.	.	.	.	16bbJJ 16dd\	.	16ddJJ 16b/	.	16bbyy>\JJ	.	16dddyy\JJ	.
*	*	*	*	*v	*v	*	*	*	*	*	*	*	*	*	*	*	*	*	*	*	*	*	*	*	*
*	*	*	*	*	*	*v	*v	*	*	*	*	*	*	*	*	*	*	*	*	*	*	*	*	*
=12	=12	=12	=12	=12	=12	=12	=12	=12	=12	=12	=12	=12	=12	=12	=12	=12	=12	=12	=12	=12	=12	=12	=12
*	*	*	*	*	*	*	*	*	*	*	*	*	*	*	*	*	*	*^	*	*	*	*	*
!	!	!	!	!	!	!	!	!	!	!	!	!LO:TX:t=P:problem=mixed beam	!	!	!	!	!	!	!	!	!	!	!	!
8F#\L	ff	16ff#LL 16f#\	.	8a#XL 8f#\	.	8ff#L 8cc#\	.	2.r	.	8ff#L 8f#/	.	8f#L 8F#\	.	8ff#L 8f#/	.	8aa#XL 8cc#/	.	8cc#L 8a#X/	2rcyy	.	8aa#yy>X\	.	8ccc#yy\L	.
.	.	16f#\	.	.	.	.	.	.	.	.	.	.	.	.	.	.	.	.	.	.	.	.	.	.
8F#\	.	16f#\	.	16f#\L	.	16ff#\L	.	.	.	16ff#L 16f#/	.	8F# 8FF#\	.	16ff#L 16f#/	.	8ff# 8f#/	.	8f#/	.	.	8ryy	.	8ff#yy\	.
.	.	16f#\JJ	.	16f#\JJ	.	16ff#\JJ	.	.	.	16ff#JJ 16f#/	.	.	.	16ff#JJ 16f#/	.	.	.	.	.	.	.	.	.	.
8A#X\	.	16a#X\LL	.	8a#X\L	.	16aa#X\LL	.	.	.	8ff#L 8f#/	.	8A#X 8AA#X\	.	8ff#L 8f#/	.	8aa# 8a#X/	.	8a#/	.	.	4ryy	.	8aa#yyX\	.
.	.	16a#\	.	.	.	16aa#\	.	.	.	.	.	.	.	.	.	.	.	.	.	.	.	.	.	.
8c#\J	.	16cc#\	.	16cc#\L	.	16ccc#\	.	.	.	16ff#L 16f#/	.	8c#J 8C#\	.	16ff#L 16f#/	.	8ccc#J 8cc#/	.	8cc#/J	.	.	.	.	8ccc#yy\J	.
.	.	16cc#\JJ	.	16cc#\JJ	.	16ccc#\JJ	.	.	.	16ff#JJ 16f#/	.	.	.	16ff#JJ 16f#/	.	.	.	.	.	.	.	.	.	.
8f#\L	.	16ff#LL 16f#\	.	16ff#\LL	.	16fff#\LL	.	.	.	8ff#L 8f#/	.	8f#L 8F#\	.	8ff#L 8f#/	.	8ff#L 8f#/	.	8ff#/L	8ff#\L	.	8fff#yy>\L	.	8fff#yy\L	.
.	.	16ff# 16f#\	.	16ff#\	.	16fff#\	.	.	.	.	.	.	.	.	.	.	.	.	.	.	.	.	.	.
16r	.	16ff# 16f#\	.	16ff#\	.	16fff#\	.	.	.	16ff#L 16f#/	.	16f#L 16F#\	.	16ff#L 16f#/	.	16ff#L 16f#/	.	16ff#/L	16ff#\L	.	16fff#yy>\	.	16fff#yy/L	.
16F#\Jk	.	16ff#JJ 16f#\	.	16ff#\JJ	.	16fff#\JJ	.	.	.	16ff#JJ 16f#/	.	16f#JJ 16F#\	.	16ff#JJ 16f#/	.	16ff#JJ 16f#/	.	16ff#/JJ	16ff#\JJ	.	16fff#yy>\J	.	16fff#yy/JJ	.
=13	=13	=13	=13	=13	=13	=13	=13	=13	=13	=13	=13	=13	=13	=13	=13	=13	=13	=13	=13	=13	=13	=13	=13	=13
*	*	*	*	*	*	*	*	*	*	*	*	*^	*	*	*	*^	*	*	*	*	*	*	*	*
4F#\	.	8ff# 8f#\	.	8ff#\	.	8fff# 8ff#\	.	2.r	.	8ff# 8f#/	.	8f#/	8F#\	.	8ff# 8f#/	.	8ff#/	8f#/	.	8ff#/	8ff#\	.	2.ryy	.	8fff#\	.
.	.	8r	.	(4f#^/	.	8r	.	.	.	8r	.	4f#^/	8r	.	8r	.	4ff#^/	8r	.	4ff#^/	4ff#^\	.	.	.	8r	.
4r	.	4r	.	.	.	4r	.	.	.	4r	.	.	4r	.	4r	.	.	4r	.	.	.	.	.	.	4r	.
!	!	!	!	!	!LO:HP:a:t=dim	!	!	!	!	!	!	!	!	!	!	!	!	!	!	!	!	!LO:HP:a:t=dim	!	!	!	!
.	.	.	.	8gn/L	>	.	.	.	.	.	.	8gn/L	.	.	.	.	8ggn/L	.	.	8ggn/L	8ggn\L	>	.	.	.	.
4r	.	4r	.	8B/)	.	4r	.	.	.	4r	.	8B/	4r	.	4r	.	8b/	4r	.	8b/	8b\	.	.	.	4r	.
.	.	.	.	8c#/J	]	.	.	.	.	.	.	8c#/J	.	.	.	.	8cc#/J	.	.	8cc#/J	8cc#\J	]	.	.	.	.
=14	=14	=14	=14	=14	=14	=14	=14	=14	=14	=14	=14	=14	=14	=14	=14	=14	=14	=14	=14	=14	=14	=14	=14	=14	=14	=14
*	*	*	*	*	*	*	*	*^	*	*	*	*	*	*	*	*	*	*	*	*	*	*	*	*	*	*
!	!	!	!LO:DY:a	!	!	!	!	!	!	!	!	!	!	!	!	!	!	!	!	!	!	!	!	!	!	!	!
8D\L	fp	8D/	f	8d/	.	2.r	.	2.ryy	8r	.	2.r	.	8d/	8rA	.	8r	.	4dd/	4dd\	.	8dd/	8dd\	.	2.ryy	.	2.r	.
!	!	!	!LO:DY:a	!	!	!	!	!	!	!	!	!	!	!	!LO:DY:a	!	!LO:DY:a	!	!	!	!	!	!	!	!	!	!
!	!	!	!	!	!LO:DY:a	!	!	!	!	!	!	!	!	!	!	!	!	!	!	!	!	!	!	!	!	!	!
8D\	.	8d\	p	8f# 8A/	p	.	.	.	8D'>\L	.	.	.	8A/	8F#\	p	8dd 8f#/	p	.	.	.	8f# 8d/	8rcyy	p	.	.	.	.
*	*	*	*	*tremolo	*	*	*	*	*	*	*	*	*tremolo	*tremolo	*	*tremolo	*	*	*	*	*tremolo	*	*	*	*	*	*
8D\	.	8d\L	.	8f#L 8A/	.	.	.	.	8D'>\	.	.	.	8A/L	8F#\L	.	8ddL 8f#/	.	4raa	4rgyy	.	8f#L 8d/	4rcyy	.	.	.	.	.
8D\	.	8d\	.	8f# 8A/	.	.	.	.	8D'>\	.	.	.	8A/	8F#\	.	8dd 8f#/	.	.	.	.	8f# 8d/	.	.	.	.	.	.
8D\	.	8d\	.	8f# 8A/	.	.	.	.	8D'>\	.	.	.	8A/	8F#\	.	8dd 8f#/	.	4raa	4rgyy	.	8f# 8d/	4rcyy	.	.	.	.	.
8D\J	.	8d\J	.	8f#J 8A/	.	.	.	.	8D'>\J	.	.	.	8A/J	8F#\J	.	8ddJ 8f#/	.	.	.	.	8f#J 8d/	.	.	.	.	.	.
*	*	*	*	*	*	*	*	*	*	*	*	*	*	*	*	*	*	*v	*v	*	*	*	*	*	*	*	*
*	*	*	*	*	*	*	*	*v	*v	*	*	*	*v	*v	*	*	*	*	*	*v	*v	*	*	*	*	*
=15	=15	=15	=15	=15	=15	=15	=15	=15	=15	=15	=15	=15	=15	=15	=15	=15	=15	=15	=15	=15	=15	=15	=15
!	!	!	!	!	!	!LO:TX:a:i:t=dolce	!	!	!	!	!	!	!	!	!	!	!	!	!	!	!	!LO:TX:a:i:t=1mo Solo	!
8D\L	.	8d\L	.	8f#L 8A/	.	8r	.	8D\	p	2.r	.	8r	.	8r	.	2.r	.	8r	.	2.ryy	.	8r	.
.	.	.	.	.	.	16qqee/	.	.	.	.	.	.	.	.	.	.	.	.	.	.	.	16qqee/	p
8D\	.	8d\	.	8f# 8A/	.	(16dd\LL	.	8r	.	.	.	8A 8F#\	.	8dd 8f#/	.	.	.	8f# 8d/	.	.	.	(16dd\LL	.
.	.	.	.	.	.	16cc#\JJ	.	.	.	.	.	.	.	.	.	.	.	.	.	.	.	16cc#\JJ	.
8D\	.	8d\	.	8f# 8A/	.	16dd\LL)	.	4r	.	.	.	8AL 8F#\	.	8ddL 8f#/	.	.	.	8f#L 8d/	.	.	.	16dd\LL)	.
.	.	.	.	.	.	16ee'\	.	.	.	.	.	.	.	.	.	.	.	.	.	.	.	16ee'\	.
8D\	.	8d\	.	8f# 8A/	.	16ff#'\	.	.	.	.	.	8A 8F#\	.	8dd 8f#/	.	.	.	8f# 8d/	.	.	.	16ff#'\	.
.	.	.	.	.	.	16gg'\JJ	.	.	.	.	.	.	.	.	.	.	.	.	.	.	.	16gg'\JJ	.
8D\	.	8d\	.	8f# 8A/	.	(8bb^<\L	.	4r	.	.	.	8A 8F#\	.	8dd 8f#/	.	.	.	8f# 8d/	.	.	.	(8bb\L	.
8D\J	.	8d\J	.	8f#J 8A/	.	16aa\Jk)	.	.	.	.	.	8AJ 8F#\	.	8ddJ 8f#/	.	.	.	8f#J 8d/	.	.	.	16aa\Jk)	.
.	.	.	.	.	.	16r	.	.	.	.	.	.	.	.	.	.	.	.	.	.	.	16r	.
=16	=16	=16	=16	=16	=16	=16	=16	=16	=16	=16	=16	=16	=16	=16	=16	=16	=16	=16	=16	=16	=16	=16	=16
*rep	*	*rep	*	*rep	*	*	*	*	*	*	*	*	*	*	*	*	*	*	*	*	*	*	*
!	!	!	!	!	!	!	!	!	!	!	!	!	!	!	!	!	!	!	!	!	!	!LO:TX:a:i:t=Col V&colon; 1mo	!
8D\L	.	8d\L	.	8f#L 8A/	.	&((8.bb^<\L	.	2.r	.	2.r	.	8r	.	8r	.	2.r	.	8r	.	2.ryy	.	(yy8.bbyy^\L	.
8D\	.	8d\	.	8f# 8A/	.	.	.	.	.	.	.	8A 8F#\	.	8dd 8f#/	.	.	.	8f# 8d/	.	.	.	.	.
.	.	.	.	.	.	16aa\Jk	.	.	.	.	.	.	.	.	.	.	.	.	.	.	.	16aayy\Jk	.
8D\	.	8d\	.	8f# 8A/	.	16gg\LL	.	.	.	.	.	8AL 8F#\	.	8ddL 8f#/	.	.	.	8f#L 8d/	.	.	.	16ggyy\LL	.
.	.	.	.	.	.	16ff#\	.	.	.	.	.	.	.	.	.	.	.	.	.	.	.	16ff#yy\	.
8D\	.	8d\	.	8f# 8A/	.	16ee\	.	.	.	.	.	8A 8F#\	.	8dd 8f#/	.	.	.	8f# 8d/	.	.	.	16eeyy\	.
.	.	.	.	.	.	16ff#\JJ)	.	.	.	.	.	.	.	.	.	.	.	.	.	.	.	16ff#yy\JJ)yy	.
8D\	.	8d\	.	8f# 8A/	.	(8.dd\L	.	.	.	.	.	8A 8F#\	.	8dd 8f#/	.	.	.	8f# 8d/	.	.	.	(yy8.ddyy\L	.
8D\J	.	8d\J	.	8f#J 8A/	.	.	.	.	.	.	.	8AJ 8F#\	.	8ddJ 8f#/	.	.	.	8f#J 8d/	.	.	.	.	.
.	.	.	.	.	.	16dd#X\Jk)&)	.	.	.	.	.	.	.	.	.	.	.	.	.	.	.	16dd#yyX\Jk)yy	.
*Xrep	*	*Xrep	*	*Xrep	*	*	*	*	*	*	*	*	*	*	*	*	*	*	*	*	*	*	*
=17	=17	=17	=17	=17	=17	=17	=17	=17	=17	=17	=17	=17	=17	=17	=17	=17	=17	=17	=17	=17	=17	=17	=17
8AA/L	.	8eL 8c#\	.	8gL 8A/	.	(16ee\LL	.	2.r	.	2.r	.	8r	.	8r	.	2.r	.	8r	.	2.ryy	.	(yy16eeyy\LL	.
.	.	.	.	.	.	16cc#\JJ)	.	.	.	.	.	.	.	.	.	.	.	.	.	.	.	16cc#yy\JJ)yy	.
8AA/	.	8e 8c#\	.	8g 8A/	.	4a\	.	.	.	.	.	8c# 8A\	.	8ee 8a/	.	.	.	8g 8e/	.	.	.	4ayy\	.
8AA/	.	8e 8c#\	.	8g 8A/	.	.	.	.	.	.	.	8c#L 8A\	.	8eeL 8a/	.	.	.	8gL 8e/	.	.	.	.	.
.	.	.	.	.	.	16qqcc#/	.	.	.	.	.	.	.	.	.	.	.	.	.	.	.	16qqcc#yy/	.
8AA/	.	8e 8c#\	.	8g 8A/	.	16b\LL	.	.	.	.	.	8c# 8A\	.	8ee 8a/	.	.	.	8g 8e/	.	.	.	16byy\LL	.
.	.	.	.	.	.	16a\JJ	.	.	.	.	.	.	.	.	.	.	.	.	.	.	.	16ayy\JJ	.
.	.	.	.	.	.	16qqcc#/	.	.	.	.	.	.	.	.	.	.	.	.	.	.	.	16qqcc#yy/	.
8AA/	.	8e 8c#\	.	8g 8A/	.	16b\LL	.	.	.	.	.	8c# 8A\	.	8ee 8a/	.	.	.	8g 8e/	.	.	.	16byy\LL	.
.	.	.	.	.	.	16a\JJ	.	.	.	.	.	.	.	.	.	.	.	.	.	.	.	16ayy\JJ	.
.	.	.	.	.	.	16qqcc#/	.	.	.	.	.	.	.	.	.	.	.	.	.	.	.	16qqcc#yy/	.
8AA/J	.	8eJ 8c#\	.	8gJ 8A/	.	16b\LL	.	.	.	.	.	8c#J 8A\	.	8eeJ 8a/	.	.	.	8gJ 8e/	.	.	.	16byy\LL	.
.	.	.	.	.	.	16a\JJ	.	.	.	.	.	.	.	.	.	.	.	.	.	.	.	16ayy\JJ	.
!!LO:PB:g=original
=18	=18	=18	=18	=18	=18	=18	=18	=18	=18	=18	=18	=18	=18	=18	=18	=18	=18	=18	=18	=18	=18	=18	=18
*	*	*	*	*	*	*	*	*	*	*	*	*	*	*	*	*	*	*^	*	*	*	*	*
!	!	!	!	!	!	!	!	!	!	!	!	!	!	!	!	!LO:TX:i:t=Ob&colon;	!	!LO:TX:i:t=Clar	!	!	!LO:TX:a:i:t=2do	!	!LO:TX:a:i:t=Picolino 1mo	!
8D\L	.	8d\L	.	8f#L 8A/	.	(32dd\KLL	.	4r	.	4r	.	8r	.	8r	.	4r	.	8r	2rcyy	.	4r	.	32dd\KLL	.
.	.	.	.	.	.	16ff#\JJ)	.	.	.	.	.	.	.	.	.	.	.	.	.	.	.	.	16ff#\JJ	.
.	.	.	.	.	.	32r	.	.	.	.	.	.	.	.	.	.	.	.	.	.	.	.	32r	.
*	*	*	*	*	*	*	*	*	*	*	*	*Xtremolo	*	*Xtremolo	*	*	*	*Xtremolo	*	*	*	*	*	*
8D\	.	8d\	.	8f# 8A/	.	(32dd\KLL	<	.	.	.	.	8dL 8A 8F# 8D\	.	8ff#L 8dd\	.	.	.	8f#L 8d/	.	.	.	.	(32dd\KLL	.
.	.	.	.	.	.	16aa\JJ)	.	.	.	.	.	.	.	.	.	.	.	.	.	.	.	.	16aa\JJ)	.
.	.	.	.	.	.	32r	.	.	.	.	.	.	.	.	.	.	.	.	.	.	.	.	32r	.
8D\	.	8d\	.	8f# 8A/	.	(32dd\KLL	.	4r	.	4r	.	8d 8A 8F# 8D\	.	8ff# 8dd\	.	4r	.	8f# 8d/	.	.	4r	.	(32dd\KLL	.
.	.	.	.	.	.	16ddd\JJ)	.	.	.	.	.	.	.	.	.	.	.	.	.	.	.	.	16ddd\JJ)	.
.	.	.	.	.	.	32r	.	.	.	.	.	.	.	.	.	.	.	.	.	.	.	.	32r	.
8D\J	.	8d\J	.	8f#J 8A/	.	(32ff#\KLL	.	.	.	.	.	8dJ 8A 8F# 8D\	.	8ff#J 8dd\	.	.	.	8f#J 8d/	.	.	.	.	(32ff#\KLL	.
.	.	.	.	.	.	16fff#\JJ)	[	.	.	.	.	.	.	.	.	.	.	.	.	.	.	.	16fff#\JJ)	.
.	.	.	.	.	.	32r	.	.	.	.	.	.	.	.	.	.	.	.	.	.	.	.	32r	.
!	!	!	!	!	!	!	!	!	!	!	!	!	!	!	!	!LO:TX:a:i:t=due	!	!	!	!	!	!	!	!
.	.	.	.	.	.	16qqaa/	sf	.	.	.	.	.	.	.	.	.	.	.	.	.	.	.	.	.
*	*	*	*	*	*	*	*	*	*	*	*	*	*	*	*	*	*	*	*	*	*	*	*tuplet	*
!	!	!	!	!	!	!	!	!	!	!	!	!	!	!	!	!	!	!	!	!	!LO:TUP:problem=klamra łukowa, numer	!	!LO:tup:a	!
!	!	!	!	!	!	!	!	!	!	!	!	!	!	!	!	!LO:TUP:a	!	!	!	!LO:DY:a	!LO:TUP:a	!	!LO:TUP:a:problem=klamra łukowa, numer	!
4A 4E 4AA/	f	4a 4e 4A\	f	4aa 4cc# 4e 4A/	f	8aaa\	.	4AA'/	ff	4a 4A/	f	(4c# (4AA\	f > ]]	4ee 4a\	f > ]]	24aa\LL	f	24aa/LL	24aa\LL	f	24aa\LL	.	24aa\LL	.
.	.	.	.	.	.	.	.	.	.	.	.	.	.	.	.	24bb\	.	24bb/	24bb\	.	24bb\	.	24bb\	.
.	.	.	.	.	.	.	.	.	.	.	.	.	.	.	.	24aa\	.	24aa/	24aa\	.	24aa\	.	24aa\	.
.	.	.	.	.	.	8r	.	.	.	.	.	.	.	.	.	24gg\	.	24gg/	24gg\	.	24gg\	.	24gg\	.
.	.	.	.	.	.	.	.	.	.	.	.	.	.	.	.	24ee\	.	24ee/	24ee\	.	24ee\	.	24ee\	.
.	.	.	.	.	.	.	.	.	.	.	.	.	.	.	.	24ff#\JJ	.	24ff#/JJ	24ff#\JJ	.	24ff#\JJ	.	24ff#\JJ	.
=19	=19	=19	=19	=19	=19	=19	=19	=19	=19	=19	=19	=19	=19	=19	=19	=19	=19	=19	=19	=19	=19	=19	=19	=19
*	*	*	*	*	*	*	*	*	*	*	*	*	*	*	*	*^	*	*	*	*	*	*	*	*
!	!	!LO:TX:b:i:t=Sul Ponticello	!	!LO:TX:b:i:t=Sul Ponticello	!	!	!	!	!	!	!	!	!	!	!	!	!	!	!	!	!	!	!	!	!
*	*	*	*	*Xtremolo	*	*	*	*	*	*	*	*	*	*	*	*	*	*	*	*	*	*	*	*	*
8D\L	p	16d\LL	p	16r	.	8r	.	2.r	.	2.r	.	8d 8D\))	.	2.r	.	8dd/L	8dd\	.	8dd/	8dd\	.	8dd\	.	8dd\	.
!	!	!	!	!	!LO:DY:a	!	!	!	!	!	!	!	!	!	!	!	!	!	!	!	!	!	!	!	!
.	.	16d\	.	16aLL 16fn/	p	.	.	.	.	.	.	.	.	.	.	.	.	.	.	.	.	.	.	.	.
.	.	.	.	.	.	16qqee/	p	.	.	.	.	.	.	.	.	16qqee/	.	.	.	.	.	.	.	.	.
8D\	.	16d\	.	16a 16f/	.	16dd\LL	.	.	.	.	.	8r	.	.	.	16dd/L	8rg	.	8fn 8d^>/	8rcyy	.	8r	.	8r	.
.	.	16d\	.	16aJJ 16f/	.	(16cc#\JJ	.	.	.	.	.	.	.	.	.	16cc#/JJ	.	.	.	.	.	.	.	.	.
*	*	*	*	*tremolo	*	*	*	*	*	*	*	*	*	*	*	*	*	*	*	*	*	*	*	*	*
8D\	.	16d\	.	16aLL 16f/	.	16dd\LL	.	.	.	.	.	4r	.	.	.	(<16dd/LL	4re	.	4raa	4rcyy	.	4r	.	4r	.
.	.	16d\	.	16a 16f/	.	16ee\	.	.	.	.	.	.	.	.	.	16ee/)	.	.	.	.	.	.	.	.	.
8D\	.	16d\	.	16a 16f/	.	16ffn\	.	.	.	.	.	.	.	.	.	16ffn/	.	.	.	.	.	.	.	.	.
.	.	16d\	.	16a 16f/	.	16gg\JJ)	.	.	.	.	.	.	.	.	.	16gg/JJ	.	.	.	.	.	.	.	.	.
8D\	.	16d\	.	16a 16f/	.	(8bb-X^<\L	.	.	.	.	.	4r	.	.	.	8bb-X/L	4rg	.	4raa	4rcyy	.	4r	.	4r	.
.	.	16d\	.	16a 16f/	.	.	.	.	.	.	.	.	.	.	.	.	.	.	.	.	.	.	.	.	.
8D\J	.	16d\	.	16a 16f/	.	16aa\Jk)	.	.	.	.	.	.	.	.	.	16aa/Jk	.	.	.	.	.	.	.	.	.
.	.	16d\JJ	.	16aJJ 16f/	.	16r	.	.	.	.	.	.	.	.	.	16rdd	.	.	.	.	.	.	.	.	.
*	*	*	*	*	*	*	*	*	*	*	*	*	*	*	*	*	*	*	*v	*v	*	*	*	*	*
=20	=20	=20	=20	=20	=20	=20	=20	=20	=20	=20	=20	=20	=20	=20	=20	=20	=20	=20	=20	=20	=20	=20	=20	=20
8D\L	.	16d\LL	.	16aLL 16fn/	.	(8.bb-X^\L	.	2.r	.	2.r	.	2.r	.	2.r	.	8.bb-X\L	2.rc	.	2.r	.	2.r	.	2.r	.
.	.	16d\	.	16a 16f/	.	.	.	.	.	.	.	.	.	.	.	.	.	.	.	.	.	.	.	.
8D\	.	16d\	.	16a 16f/	.	.	.	.	.	.	.	.	.	.	.	.	.	.	.	.	.	.	.	.
.	.	16d\	.	16a 16f/	.	16aa\Jk	.	.	.	.	.	.	.	.	.	(16aa\Jk	.	.	.	.	.	.	.	.
8D\	.	16d\	.	16a 16f/	.	16gg\LL	.	.	.	.	.	.	.	.	.	16gg\LL	.	.	.	.	.	.	.	.
.	.	16d\	.	16a 16f/	.	16ffn\	.	.	.	.	.	.	.	.	.	16ffn\	.	.	.	.	.	.	.	.
8D\	.	16d\	.	16a 16f/	.	16ee\)	.	.	.	.	.	.	.	.	.	16ee\	.	.	.	.	.	.	.	.
.	.	16d\	.	16a 16f/	.	16ff\JJ	.	.	.	.	.	.	.	.	.	16ff\JJ	.	.	.	.	.	.	.	.
8D\	.	16d\	.	16a 16f/	.	(16dd\LL	.	.	.	.	.	.	.	.	.	16dd\LL	.	.	.	.	.	.	.	.
.	.	16d\	.	16a 16f/	.	16ee\	.	.	.	.	.	.	.	.	.	16ee\	.	.	.	.	.	.	.	.
8D\J	.	16d\	.	16a 16f/	.	16ff\	.	.	.	.	.	.	.	.	.	16ff\)	.	.	.	.	.	.	.	.
.	.	16d\JJ	.	16aJJ 16f/	.	16ff#X\JJ)	.	.	.	.	.	.	.	.	.	16ff#X\JJ	.	.	.	.	.	.	.	.
*	*	*	*	*	*	*	*	*	*	*	*	*clefC4	*	*	*	*	*	*	*	*	*	*	*	*
=21	=21	=21	=21	=21	=21	=21	=21	=21	=21	=21	=21	=21	=21	=21	=21	=21	=21	=21	=21	=21	=21	=21	=21	=21
*	*	*	*	*	*	*	*	*	*	*	*	*^	*	*	*	*	*	*	*^	*	*	*	*	*
!	!	!	!	!	!	!	!	!	!	!	!	!	!	!	!	!	!LO:TX:a:i:t=Col V&colon; 1mo	!	!	!	!	!LO:DY:a	!	!	!	!
8Cn\L	.	16eLL 16cn\	.	16b-XLL 16g/	.	(16gg\LL	.	2.r	.	2.r	.	2.e/	[2.cn\	.	2.r	.	(yy16ggyy\LL	2.rA	.	(2.b-X/	(2.g\	p	2.r	.	2.r	.
.	.	16e 16c\	.	16b- 16g/	.	16ee\J)	.	.	.	.	.	.	.	.	.	.	16eeyy\J)yy	.	.	.	.	.	.	.	.	.
8C\	.	16e 16c\	.	16b- 16g/	.	[8ccn^<\J	.	.	.	.	.	.	.	.	.	.	[yy8ccnyy^<\J	.	.	.	.	.	.	.	.	.
.	.	16e 16c\	.	16b- 16g/	.	.	.	.	.	.	.	.	.	.	.	.	.	.	.	.	.	.	.	.	.	.
8C\	.	16e 16c\	.	16b- 16g/	.	16cc\LL]	.	.	.	.	.	.	.	.	.	.	16ccyy\LL]yy	.	.	.	.	.	.	.	.	.
.	.	16e 16c\	.	16b- 16g/	.	16dd\	.	.	.	.	.	.	.	.	.	.	(yy16ddyy\	.	.	.	.	.	.	.	.	.
8C\	.	16e 16c\	.	16b- 16g/	.	(16ee\	.	.	.	.	.	.	.	.	.	.	16eeyy\	.	.	.	.	.	.	.	.	.
.	.	16e 16c\	.	16b- 16g/	.	16ffn\JJ	.	.	.	.	.	.	.	.	.	.	16ffnyy\JJ	.	.	.	.	.	.	.	.	.
8C\	.	16e 16c\	.	16b- 16g/	.	16gg\LL	.	.	.	.	.	.	.	.	.	.	16ggyy\LL	.	.	.	.	.	.	.	.	.
.	.	16e 16c\	.	16b- 16g/	.	16aa\	.	.	.	.	.	.	.	.	.	.	16aayy\	.	.	.	.	.	.	.	.	.
8C\J	.	16e 16c\	.	16b- 16g/	.	16bb-X\	.	.	.	.	.	.	.	.	.	.	16bb-yyX\	.	.	.	.	.	.	.	.	.
.	.	16eJJ 16c\	.	16b-JJ 16g/	.	16bbn\JJ)	.	.	.	.	.	.	.	.	.	.	16bbnyy\JJ)yy	.	.	.	.	.	.	.	.	.
=22	=22	=22	=22	=22	=22	=22	=22	=22	=22	=22	=22	=22	=22	=22	=22	=22	=22	=22	=22	=22	=22	=22	=22	=22	=22	=22
!LO:SIC:v:s=8C\L	!	!	!	!	!	!	!	!	!	!	!	!	!	!	!	!	!	!	!	!	!	!	!	!	!	!
8C#\L	.	16fnLL 16cn\	.	16aLL 16fn/	.	(16cccn\LL	.	2.r	.	2.r	.	8fn/	2.c\	.	2.r	.	(yy16cccnyy\LL	2.rc	.	4a/)	4fn\)	.	2.r	.	2.r	.
.	.	16f 16c\	.	16a 16f/	.	16aa\J)	.	.	.	.	.	.	.	.	.	.	16aayy\J)yy	.	.	.	.	.	.	.	.	.
!LO:SIC:v:s=8C\L	!	!	!	!	!	!	!	!	!	!	!	!	!	!	!	!	!	!	!	!	!	!	!	!	!	!
8C#\	.	16f 16c\	.	16a 16f/	.	[8ffn^<\J	.	.	.	.	.	8rc	.	.	.	.	[yy8ffnyy^<\J	.	.	.	.	.	.	.	.	.
.	.	16f 16c\	.	16a 16f/	.	.	.	.	.	.	.	.	.	.	.	.	.	.	.	.	.	.	.	.	.	.
!LO:SIC:v:s=8C\L	!	!	!	!	!	!	!	!	!	!	!	!	!	!	!	!	!	!	!	!	!	!	!	!	!	!
8C#\	.	16f 16c\	.	16a 16f/	.	16ff\LL]	.	.	.	.	.	4rc	.	.	.	.	16ffyy\LL]yy	.	.	4raa	4rcyy	.	.	.	.	.
.	.	16f 16c\	.	16a 16f/	.	(16gg\	.	.	.	.	.	.	.	.	.	.	(yy16ggyy\	.	.	.	.	.	.	.	.	.
!LO:SIC:v:s=8C\L	!	!	!	!	!	!	!	!	!	!	!	!	!	!	!	!	!	!	!	!	!	!	!	!	!	!
8C#\	.	16f 16c\	.	16a 16f/	.	16ff\	.	.	.	.	.	.	.	.	.	.	16ffyy\	.	.	.	.	.	.	.	.	.
.	.	16f 16c\	.	16a 16f/	.	16ee\JJ	.	.	.	.	.	.	.	.	.	.	16eeyy\JJ	.	.	.	.	.	.	.	.	.
!LO:SIC:v:s=8C\L	!	!	!	!	!	!	!	!	!	!	!	!	!	!	!	!	!	!	!	!	!	!	!	!	!	!
8C#\	.	16f 16c\	.	16a 16f/	.	16ff\LL	.	.	.	.	.	4rc	.	.	.	.	16ffyy\LL	.	.	4raa	4rcyy	.	.	.	.	.
.	.	16f 16c\	.	16a 16f/	.	16gg\	.	.	.	.	.	.	.	.	.	.	16ggyy\	.	.	.	.	.	.	.	.	.
!LO:SIC:v:s=8C\L	!	!	!	!	!	!	!	!	!	!	!	!	!	!	!	!	!	!	!	!	!	!	!	!	!	!
8C#\J	.	16f 16c\	.	16a 16f/	.	16gg#X\)	.	.	.	.	.	.	.	.	.	.	16gg#yyX\	.	.	.	.	.	.	.	.	.
.	.	16fJJ 16c\	.	16aJJ 16f/	.	16aa\JJ	.	.	.	.	.	.	.	.	.	.	16aayy\JJ)yy	.	.	.	.	.	.	.	.	.
=23	=23	=23	=23	=23	=23	=23	=23	=23	=23	=23	=23	=23	=23	=23	=23	=23	=23	=23	=23	=23	=23	=23	=23	=23	=23	=23
8C#X\L	.	16eLL 16c#X\	.	16b-XLL 16g/	.	(16bb-X\LL	.	2.r	.	2.r	.	2e/	2c#X\]	.	2.r	.	(16bb-X\LL	2.rc	.	(2b-X/	2g\	.	2.r	.	2.r	.
.	.	16e 16c#\	.	16b- 16g/	.	16gg\J)	.	.	.	.	.	.	.	.	.	.	16gg\J)	.	.	.	.	.	.	.	.	.
8C#\	.	16e 16c#\	.	16b- 16g/	.	[8ee^<\J	.	.	.	.	.	.	.	.	.	.	[8ee^<\J	.	.	.	.	.	.	.	.	.
.	.	16e 16c#\	.	16b- 16g/	.	.	.	.	.	.	.	.	.	.	.	.	.	.	.	.	.	.	.	.	.	.
8C#\	.	16e 16c#\	.	16b- 16g/	.	16ee\LL]	.	.	.	.	.	.	.	.	.	.	16ee\LL]	.	.	.	.	.	.	.	.	.
.	.	16e 16c#\	.	16b- 16g/	.	(16gg\	.	.	.	.	.	.	.	.	.	.	(16gg\	.	.	.	.	.	.	.	.	.
8C#\J	.	16e 16c#\	.	16b- 16g/	.	16ffn\	.	.	.	.	.	.	.	.	.	.	16ffn\	.	.	.	.	.	.	.	.	.
.	.	16eJJ 16c#\	.	16b-JJ 16g/	.	16ee\JJ	.	.	.	.	.	.	.	.	.	.	16ee\JJ	.	.	.	.	.	.	.	.	.
8D\L	.	16fnLL 16d\	.	16aLL 16fn/	.	16dd\LL	.	.	.	.	.	4fn/	4d\	.	.	.	16dd\LL	.	.	4a/)	4fn\	.	.	.	.	.
.	.	16f 16d\	.	16a 16f/	.	16ff\	.	.	.	.	.	.	.	.	.	.	16ff\	.	.	.	.	.	.	.	.	.
8D\J	.	16f 16d\	.	16a 16f/	.	16ee\	.	.	.	.	.	.	.	.	.	.	16ee\	.	.	.	.	.	.	.	.	.
.	.	16fJJ 16d\	.	16aJJ 16f/	.	16dd\JJ)	.	.	.	.	.	.	.	.	.	.	16dd\JJ)	.	.	.	.	.	.	.	.	.
!!LO:PB:g=original
=24	=24	=24	=24	=24	=24	=24	=24	=24	=24	=24	=24	=24	=24	=24	=24	=24	=24	=24	=24	=24	=24	=24	=24	=24	=24	=24
*	*	*	*	*^	*	*	*	*	*	*	*	*	*	*	*	*	*	*	*	*	*	*	*	*	*	*
8AA/	.	8e 8A\	.	8a/	16e\LL	.	(16cc#X\LL	.	2.r	.	2.r	.	4e/	4c#X\	.	2.r	.	16cc#X/LL	2.rc	.	4a/	4e\	.	2.r	.	2.r	.
.	.	.	.	.	16e\	.	16dd\	.	.	.	.	.	.	.	.	.	.	16dd/	.	.	.	.	.	.	.	.	.
8r	.	8r	.	8rg	16e\	.	16dd#X\	.	.	.	.	.	.	.	.	.	.	16dd#X/	.	.	.	.	.	.	.	.	.
.	.	.	.	.	16e\JJ	.	16ee\JJ	.	.	.	.	.	.	.	.	.	.	16ee/JJ	.	.	.	.	.	.	.	.	.
4r	.	4r	.	4rdd	4rcyy	.	16a\LL)	.	.	.	.	.	4r	4rBByy	.	.	.	8a/	.	.	16rdd	16rcyy	.	.	.	.	.
.	.	.	.	.	.	.	(16a\	.	.	.	.	.	.	.	.	.	.	.	.	.	16a/LL	16a\LL	.	.	.	.	.
.	.	.	.	.	.	.	16g#X\	.	.	.	.	.	.	.	.	.	.	8rg	.	.	(16g#X/	16g#\	.	.	.	.	.
.	.	.	.	.	.	.	16a\JJ	.	.	.	.	.	.	.	.	.	.	.	.	.	16a/JJ	16a\JJ	.	.	.	.	.
4r	.	4r	.	4rdd	4rcyy	.	16b-X\LL	.	.	.	.	.	4r	4rBByy	.	.	.	4rg	.	.	16b-X/LL	16b-\LL	.	.	.	.	.
.	.	.	.	.	.	.	16bn\	.	.	.	.	.	.	.	.	.	.	.	.	.	16bn/	16b\	.	.	.	.	.
.	.	.	.	.	.	.	16ccn\	.	.	.	.	.	.	.	.	.	.	.	.	.	16ccn/)	16cc\	.	.	.	.	.
.	.	.	.	.	.	.	16cc#X\JJ)	.	.	.	.	.	.	.	.	.	.	.	.	.	16cc#X/JJ	16cc#\JJ	.	.	.	.	.
*	*	*	*	*v	*v	*	*	*	*	*	*	*	*v	*v	*	*	*	*	*	*	*v	*v	*	*	*	*	*
*	*	*	*	*	*	*	*	*	*	*	*	*clefF4	*	*	*	*	*	*	*	*	*	*	*	*
=25	=25	=25	=25	=25	=25	=25	=25	=25	=25	=25	=25	=25	=25	=25	=25	=25	=25	=25	=25	=25	=25	=25	=25	=25
*	*	*	*	*	*	*	*	*tremolo	*	*	*	*tremolo	*	*	*	*	*	*	*	*	*	*	*	*
!	!	!	!	!	!	!	!	!	!	!	!	!LO:TX:a:t=Col B&colon;	!	!	!	!	!	!	!LO:TX:a:i:t=due	!	!	!	!	!
8D/L	ff	16f#XLL 16d\	ff	16aLL 16f#X/	ff	8dd'\L	ff	16D\LL	ff	[2.a [2.f#/	f	8Dyy/L	ff	[2.ff# [>2.dd\	ff	[2.ff#X/	[>2.dd\	ff	8dd\L	.	8r	.	8r	.
.	.	16f# 16d\	.	16a 16f#/	.	.	.	16D\	.	.	.	.	.	.	.	.	.	.	.	.	.	.	.	.
.	.	.	.	.	.	16qqee/	.	.	.	.	.	.	.	.	.	.	.	.	16qqee/	.	16qqee/	.	16qqee/	.
8AA/	.	16f# 16d\	.	16a 16f#/	.	(16dd\L	.	16D\	.	.	.	8AAyy/	.	.	.	.	.	.	16dd\L	.	16dd\LL	.	16dd\LL	.
.	.	16f# 16d\	.	16a 16f#/	.	16cc#\JJ)	.	16D\	.	.	.	.	.	.	.	.	.	.	16cc#X\JJ	.	16cc#X\JJ	.	16cc#X\JJ	.
8D/	.	16f# 16d\	.	16a 16f#/	.	16dd'\LL	.	16D\	.	.	.	8Dyy/	.	.	.	.	.	.	16dd\LL	.	16dd\LL	.	16dd\LL	.
.	.	16f# 16d\	.	16a 16f#/	.	16ee'\	.	16D\	.	.	.	.	.	.	.	.	.	.	16ee\	.	16ee\	.	16ee\	.
8AA/	.	16f# 16d\	.	16a 16f#/	.	16ff#X'\	.	16D\	.	.	.	8AAyy/	.	.	.	.	.	.	16ff#X\	.	16ff#X\	.	16ff#X\	.
.	.	16f# 16d\	.	16a 16f#/	.	16gg'\JJ	.	16D\	.	.	.	.	.	.	.	.	.	.	16gg\JJ	.	16gg\JJ	.	16gg\JJ	.
8D/	.	16f# 16d\	.	16a 16f#/	.	(8bbnL 8bn\	.	16D\	.	.	.	8Dyy/	.	.	.	.	.	.	(8bbn^<\L	.	8bb\L	.	(8bb^<\L	.
.	.	16f# 16d\	.	16a 16f#/	.	.	.	16D\	.	.	.	.	.	.	.	.	.	.	.	.	.	.	.	.
8AA/J	.	16f# 16d\	.	16a 16f#/	.	16aaJk 16a\)	.	16D\	.	.	.	8AAyy/J	.	.	.	.	.	.	16aa\Jk)	.	16aa\Jk	.	16aa\Jk)	.
.	.	16f#JJ 16d\	.	16aJJ 16f#/	.	16r	.	16D\JJ	.	.	.	.	.	.	.	.	.	.	16r	.	16r	.	16r	.
*	*	*	*	*	*	*	*	*Xtremolo	*	*	*	*	*	*	*	*	*	*	*	*	*	*	*	*
*	*	*	*	*	*	*	*	*	*	*	*	*	*	*	*	*v	*v	*	*	*	*	*	*	*
=26	=26	=26	=26	=26	=26	=26	=26	=26	=26	=26	=26	=26	=26	=26	=26	=26	=26	=26	=26	=26	=26	=26	=26
*rep	*	*rep	*	*rep	*	*	*	*	*	*	*	*	*	*	*	*	*	*	*	*	*	*	*
!	!	!	!	!	!	!	!	!	!	!	!	!	!	!	!	!	!	!	!	!LO:TX:a:t=Uniſ	!	!	!
8D/L	.	16f#LL 16d\	.	16aLL 16f#/	.	(8.bbL 8.b\	.	4D\	.	4a] 4f#/]	.	8Dyy/L	.	4ff#] 4dd\]	.	4ff#] 4dd\]	.	8.bb\L	.	2.ryy	.	(8.bb^<\L	.
.	.	16f# 16d\	.	16a 16f#/	.	.	.	.	.	.	.	.	.	.	.	.	.	.	.	.	.	.	.
8AA/	.	16f# 16d\	.	16a 16f#/	.	.	.	.	.	.	.	8AAyy/	.	.	.	.	.	.	.	.	.	.	.
.	.	16f# 16d\	.	16a 16f#/	.	16aaJk 16a\)	.	.	.	.	.	.	.	.	.	.	.	16aa\Jk	.	.	.	16aa\Jk	.
8D/	.	16f# 16d\	.	16a 16f#/	.	(16gg\LL	.	4D\	.	4a 4f#/	.	8Dyy/	.	4ff# 4dd\	.	4ff# 4dd\	.	16gg\LL	.	.	.	16gg\LL	.
.	.	16f# 16d\	.	16a 16f#/	.	16ff#\	.	.	.	.	.	.	.	.	.	.	.	16ff#\	.	.	.	16ff#\	.
8AA/	.	16f# 16d\	.	16a 16f#/	.	16ee\	.	.	.	.	.	8AAyy/	.	.	.	.	.	16ee\	.	.	.	16ee\	.
.	.	16f# 16d\	.	16a 16f#/	.	16ff#\JJ)	.	.	.	.	.	.	.	.	.	.	.	16ff#\JJ	.	.	.	16ff#\JJ)	.
8D/	.	16f# 16d\	.	16a 16f#/	.	(8.dd\L	.	4D\	.	4a 4f#/	.	8Dyy/	.	4ff# 4dd\	.	4ff# 4dd\	.	8.dd\L	.	.	.	8.dd\L	.
.	.	16f# 16d\	.	16a 16f#/	.	.	.	.	.	.	.	.	.	.	.	.	.	.	.	.	.	.	.
8AA/J	.	16f# 16d\	.	16a 16f#/	.	.	.	.	.	.	.	8AAyy/J	.	.	.	.	.	.	.	.	.	.	.
.	.	16f#JJ 16d\	.	16aJJ 16f#/	.	16dd#X\Jk)	.	.	.	.	.	.	.	.	.	.	.	16dd#X\Jk	.	.	.	16dd#X\Jk	.
*Xrep	*	*Xrep	*	*Xrep	*	*	*	*	*	*	*	*	*	*	*	*	*	*	*	*	*	*	*
=27	=27	=27	=27	=27	=27	=27	=27	=27	=27	=27	=27	=27	=27	=27	=27	=27	=27	=27	=27	=27	=27	=27	=27
*	*	*	*	*	*	*	*	*	*	*	*	*	*	*	*	*	*	*^	*	*	*	*	*
!	!	!	!	!	!	!	!	!	!	!	!	!	!	!	!	!	!	!	!	!	!	!	!LO:TX:a:t=Col Vo 1mo	!
8C#/L	.	16eLL 16c#\	.	16aLL 16g/	.	(16ee\LL	.	8r	.	8r	.	8C#yy/L	.	8r	.	2.ee [2.a\	.	2.ee/	2.a\	.	2.ryy	.	(yy16eeyy\LL	.
.	.	16e 16c#\	.	16a 16g/	.	16cc#\J)	.	.	.	.	.	.	.	.	.	.	.	.	.	.	.	.	16cc#yy\J)yy	.
*	*	*	*	*	*	*	*	*	*	*rep	*	*	*	*	*	*	*	*	*	*	*	*	*	*
8AA/	.	16e 16c#\	.	16a 16g/	.	[8a\J	.	16AA/LL	.	16aLL 16A/	.	8AAyy/	.	16eeLL 16a/	.	.	.	.	.	.	.	.	[yy8ayy\J	.
.	.	16e 16c#\	.	16a 16g/	.	.	.	16AA/JJ	.	16aJJ 16A/	.	.	.	16eeJJ 16a/	.	.	.	.	.	.	.	.	.	.
*	*	*	*	*	*	*	*	*tremolo	*	*tremolo	*	*	*	*tremolo	*	*	*	*	*	*	*	*	*	*
8C#/	.	16e 16c#\	.	16a 16g/	.	16a\LL]	.	8AA/L	.	8aL 8A/	.	8C#yy/	.	8eeL 8a/	.	.	.	.	.	.	.	.	16ayy\LL]yy	.
.	.	16e 16c#\	.	16a 16g/	.	(16b\	.	.	.	.	.	.	.	.	.	.	.	.	.	.	.	.	(yy16byy\	.
8AA/	.	16e 16c#\	.	16a 16g/	.	16cc#\	.	8AA/	.	8a 8A/	.	8AAyy/	.	8ee 8a/	.	.	.	.	.	.	.	.	16cc#yy\	.
.	.	16e 16c#\	.	16a 16g/	.	16dd\JJ	.	.	.	.	.	.	.	.	.	.	.	.	.	.	.	.	16ddyy\JJ	.
8C#/	.	16e 16c#\	.	16a 16g/	.	16ee\LL	.	8AA/	.	8a 8A/	.	8C#yy/	.	8ee 8a/	.	.	.	.	.	.	.	.	16eeyy\LL	.
.	.	16e 16c#\	.	16a 16g/	.	16ff#\	.	.	.	.	.	.	.	.	.	.	.	.	.	.	.	.	16ff#yy\	.
8AA/J	.	16e 16c#\	.	16a 16g/	.	16gg\	.	8AA/J	.	8aJ 8A/	.	8AAyy/J	.	8eeJ 8a/	.	.	.	.	.	.	.	.	16ggyy\	.
.	.	16eJJ 16c#\	.	16aJJ 16g/	.	16gg#X\JJ)	.	.	.	.	.	.	.	.	.	.	.	.	.	.	.	.	16gg#yyX\JJ)yy	.
*	*	*	*	*	*	*	*	*Xtremolo	*	*Xtremolo	*	*	*	*Xtremolo	*	*	*	*	*	*	*	*	*	*
*	*	*	*	*	*	*	*	*	*	*Xrep	*	*	*	*	*	*	*	*	*	*	*	*	*	*
=28	=28	=28	=28	=28	=28	=28	=28	=28	=28	=28	=28	=28	=28	=28	=28	=28	=28	=28	=28	=28	=28	=28	=28	=28
8D/L	.	16f#LL 16d\	.	16aLL 16f#/	.	(16aa\LL	.	8r	.	8r	.	8Dyy/L	.	8r	.	2.ff# 2.a\]	.	2.ff#/	2.dd\	.	(16aa\LL	.	(yy16aayy\LL	.
.	.	16f# 16d\	.	16a 16f#/	.	16ff#\)	.	.	.	.	.	.	.	.	.	.	.	.	.	.	16ff#\)	.	16ff#yy\)yy	.
*	*	*	*	*	*	*	*	*	*	*rep	*	*	*	*	*	*	*	*	*	*	*	*	*	*
8AA/	.	16f# 16d\	.	16a 16f#/	.	(16ggn\	.	16D/LL	.	16aLL 16A/	.	8AAyy/	.	16ff#LL 16dd\	.	.	.	.	.	.	(16ggn\	.	(yy16ggnyy\	.
.	.	16f# 16d\	.	16a 16f#/	.	16ee\JJ)	.	16D/JJ	.	16aJJ 16A/	.	.	.	16ff#JJ 16dd\	.	.	.	.	.	.	16ee\JJ)	.	16eeyy\JJ)yy	.
*	*	*	*	*	*	*	*	*tremolo	*	*tremolo	*	*	*	*tremolo	*	*	*	*	*	*	*	*	*	*
8D/	.	16f# 16d\	.	16a 16f#/	.	(8dd\L	.	8D/L	.	8aL 8A/	.	8Dyy/	.	8ff#L 8dd\	.	.	.	.	.	.	8dd\	.	(yy8ddyy\L	.
.	.	16f# 16d\	.	16a 16f#/	.	.	.	.	.	.	.	.	.	.	.	.	.	.	.	.	.	.	.	.
8AA/	.	16f# 16d\	.	16a 16f#/	.	16ddd\Jk)	.	8D/	.	8a 8A/	.	8AAyy/	.	8ff# 8dd\	.	.	.	.	.	.	8r	.	16dddyy\Jk)yy	.
.	.	16f# 16d\	.	16a 16f#/	.	16r	.	.	.	.	.	.	.	.	.	.	.	.	.	.	.	.	16ryy	.
8D/	.	16f# 16d\	.	16a 16f#/	.	(8dd\L	.	8D/	.	8a 8A/	.	8Dyy/	.	8ff# 8dd\	.	.	.	.	.	.	4r	.	(yy8ddyy\L	.
.	.	16f# 16d\	.	16a 16f#/	.	.	.	.	.	.	.	.	.	.	.	.	.	.	.	.	.	.	.	.
8AA/J	.	16f# 16d\	.	16a 16f#/	.	16fff#\Jk)	.	8D/J	.	8aJ 8A/	.	8AAyy/J	.	8ff#J 8dd\	.	.	.	.	.	.	.	.	16fff#yy\Jk)yy	.
.	.	16f#JJ 16d\	.	16aJJ 16f#/	.	16r	.	.	.	.	.	.	.	.	.	.	.	.	.	.	.	.	16ryy	.
*	*	*	*	*	*	*	*	*Xtremolo	*	*Xtremolo	*	*	*	*Xtremolo	*	*	*	*	*	*	*	*	*	*
*	*	*	*	*	*	*	*	*	*	*Xrep	*	*	*	*	*	*	*	*	*	*	*	*	*	*
=29	=29	=29	=29	=29	=29	=29	=29	=29	=29	=29	=29	=29	=29	=29	=29	=29	=29	=29	=29	=29	=29	=29	=29	=29
8C#/L	.	16eLL 16c#\	.	16aLL 16g/	.	(16eee\LL	.	8r	.	8r	.	8C#yy/L	.	8r	.	2ee 2a\	.	2.ee/	2.a\	.	2aaT\	.	(yy16eeeyy\LL	.
.	.	16e 16c#\	.	16a 16g/	.	16ccc#\J)	.	.	.	.	.	.	.	.	.	.	.	.	.	.	.	.	16ccc#yy\J)yy	.
*	*	*	*	*	*	*	*	*	*	*rep	*	*	*	*	*	*	*	*	*	*	*	*	*	*
8AA/	.	16e 16c#\	.	16a 16g/	.	[8aa\J	.	16AA/LL	.	16aLL 16A/	.	8AAyy/	.	16eeLL 16a\	.	.	.	.	.	.	.	.	[yy8aayy\J	.
.	.	16e 16c#\	.	16a 16g/	.	.	.	16AA/JJ	.	16aJJ 16A/	.	.	.	16eeJJ 16a\	.	.	.	.	.	.	.	.	.	.
*	*	*	*	*	*	*	*	*tremolo	*	*tremolo	*	*	*	*	*	*	*	*	*	*	*	*	*	*
8C#/	.	16e 16c#\	.	16a 16g/	.	(16aa\LL]	.	8AA/L	.	8aL 8A/	.	8C#yy/	.	8eeL 8a\	.	.	.	.	.	.	.	.	(yy16aayy\LL]yy	.
.	.	16e 16c#\	.	16a 16g/	.	16ggg\)	.	.	.	.	.	.	.	.	.	.	.	.	.	.	.	.	16gggyy\)yy	.
8AA/	.	16e 16c#\	.	16a 16g/	.	16eee'\	.	8AA/	.	8a 8A/	.	8AAyy/	.	8ee 8a\	.	.	.	.	.	.	.	.	16eeeyy'\	.
.	.	16e 16c#\	.	16a 16g/	.	16ccc#'\JJ	.	.	.	.	.	.	.	.	.	.	.	.	.	.	.	.	16ccc#yy'\JJ	.
8C#/	.	16e 16c#\	.	16a 16g/	.	(16aa\LL	.	8AA/	.	8a 8A/	.	8C#yy/	.	8ee 8a\	.	4gg 4ee\	.	.	.	.	(16aa\LL	.	(yy16aayy\LL	.
.	.	16e 16c#\	.	16a 16g/	.	16aa#X\)	.	.	.	.	.	.	.	.	.	.	.	.	.	.	16aa#X\	.	16aa#yyX\)yy	.
8AA/J	.	16e 16c#\	.	16a 16g/	.	16bb\	.	8AA/J	.	8aJ 8A/	.	8AAyy/J	.	8eeJ 8a\	.	.	.	.	.	.	16bb\)	.	16bbyy\	.
.	.	16eJJ 16c#\	.	16aJJ 16g/	.	16gg\JJ	.	.	.	.	.	.	.	.	.	.	.	.	.	.	16gg'\JJ	.	16ggyy\JJ	.
*	*	*	*	*	*	*	*	*Xtremolo	*	*Xtremolo	*	*	*	*	*	*	*	*	*	*	*	*	*	*
*	*	*	*	*	*	*	*	*	*	*Xrep	*	*	*	*	*	*	*	*	*	*	*	*	*	*
*	*	*	*	*	*	*	*	*	*	*	*	*	*	*	*	*	*	*v	*v	*	*	*	*	*
=30	=30	=30	=30	=30	=30	=30	=30	=30	=30	=30	=30	=30	=30	=30	=30	=30	=30	=30	=30	=30	=30	=30	=30
8D/L	.	8f#L 8d\	.	8aL 8f#/	.	(16ff#\LL	.	8D/L	.	8r	.	8Dyy	.	8.ff#L 8.dd\	.	(16ff#LL 16dd\	.	(16ff#LL 16dd\	.	(16dd\LL	.	(16ff#\LL	.
.	.	.	.	.	.	16aa\)	.	.	.	.	.	.	.	.	.	16aa 16ff#\)	.	16aa 16ff#\)	.	16ff#\)	.	16aa\)	.
8AA/J	.	8eJ 8A\	.	8aJ 8g/	.	16gg'\	.	8AA/J	.	16r	.	8AAyy	.	.	.	16gg 16ee'\	.	16gg 16ee'\	.	16ee'\	.	16gg'\	.
.	.	.	.	.	.	16ee'\JJ	.	.	.	16ee 16a/	.	.	.	16eeJk 16a\	.	16eeJJ 16cc#'\	.	16eeJJ 16cc#'\	.	16cc#'\JJ	.	16ee'\JJ	.
8r	.	8r	.	8r	.	(4ee\	.	8r	.	4ee 4a/	.	8ryy	.	4ee 4a\	.	(4ee 4cc#\	.	(4ee 4cc#\	.	(4cc#\	.	4ee\	.
8AA/	.	8e 8A\	.	8a 8g/	.	.	.	8AA/	.	.	.	8AAyy	.	.	.	.	.	.	.	.	.	.	.
4D/	.	4f# 4d\	.	4a 4f#/	.	8dd\)	.	4D/	.	8dd 8f#/	.	4Dyy	.	8dd 8f#/	.	8dd\)	.	8dd\)	.	8dd\)	.	8dd\	.
.	.	.	.	.	.	8r	.	.	.	8r	.	.	.	8r	.	8r	.	8r	.	8r	.	8r	.
=31:|!|:	=31:|!|:	=31:|!|:	=31:|!|:	=31:|!|:	=31:|!|:	=31:|!|:	=31:|!|:	=31:|!|:	=31:|!|:	=31:|!|:	=31:|!|:	=31:|!|:	=31:|!|:	=31:|!|:	=31:|!|:	=31:|!|:	=31:|!|:	=31:|!|:	=31:|!|:	=31:|!|:	=31:|!|:	=31:|!|:	=31:|!|:
*>B	*	*>B	*	*>B	*	*>B	*	*>B	*	*>B	*	*>B	*	*>B	*	*>B	*	*>B	*	*>B	*	*>B	*
*Xtremolo	*	*Xtremolo	*	*Xtremolo	*	*	*	*	*	*	*	*	*	*	*	*	*	*	*	*	*	*	*
16BB/LL	p	16dLL 16B\	p	16dLL 16B/	p	16f#LL 16d/	p	2.r	.	2.r	.	2.r	.	2.r	.	4r	.	4r	.	4r	.	4r	.
16BB/	.	16d 16B\	.	16d 16B/	.	16f# 16d/	.	.	.	.	.	.	.	.	.	.	.	.	.	.	.	.	.
16BB/JJ	.	16dJJ 16B\	.	16dJJ 16B/	.	16f#JJ 16d/	.	.	.	.	.	.	.	.	.	.	.	.	.	.	.	.	.
16r	.	16r	.	16r	.	16r	.	.	.	.	.	.	.	.	.	.	.	.	.	.	.	.	.
16BB/LL	.	16dLL 16B\	.	16dLL 16B/	.	16f#LL 16d/	.	.	.	.	.	.	.	.	.	4r	.	8r	.	8r	.	8r	.
16BB/	.	16d 16B\	.	16d 16B/	.	16f# 16d/	.	.	.	.	.	.	.	.	.	.	.	.	.	.	.	.	.
!	!	!	!	!	!	!	!	!	!	!	!	!	!	!	!	!	!	!	!	!	!	!LO:TX:a:i:t=Soli	!
16BB/JJ	.	16dJJ 16B\	.	16dJJ 16B/	.	16f#JJ 16d/	.	.	.	.	.	.	.	.	.	.	.	8f#L 8d'/	.	8dd'\L	p	8ff#'\L	p
16r	.	16r	.	16r	.	16r	.	.	.	.	.	.	.	.	.	.	.	.	.	.	.	.	.
16BB/LL	.	16dLL 16B\	.	16dLL 16B/	.	16f#LL 16d/	.	.	.	.	.	.	.	.	.	8r	.	8d 8B'/	.	8b'\	.	8dd'\	.
16BB/	.	16d 16B\	.	16d 16B/	.	16f# 16d/	.	.	.	.	.	.	.	.	.	.	.	.	.	.	.	.	.
16BB/JJ	.	16dJJ 16B\	.	16dJJ 16B/	.	16f#JJ 16d/	.	.	.	.	.	.	.	.	.	8ddd 8ff#\	p	8ddJ 8f#/	.	8ff#'\J	.	8ddd'\J	.
16r	.	16r	.	16r	.	16r	.	.	.	.	.	.	.	.	.	.	.	.	.	.	.	.	.
=32	=32	=32	=32	=32	=32	=32	=32	=32	=32	=32	=32	=32	=32	=32	=32	=32	=32	=32	=32	=32	=32	=32	=32
*rep	*	*rep	*	*rep	*	*rep	*	*	*	*	*	*	*	*	*	*	*	*	*	*	*	*	*
*	*	*	*	*	*	*	*	*	*	*	*	*	*	*^	*	*	*	*	*	*	*	*	*
16BB/LL	.	16dLL 16B\	.	16dLL 16B/	.	16f#LL 16d/	.	2.r	.	2.r	.	2.r	.	8r	8rdyy	.	4bb 4dd\	.	4b 4d/	.	4dd\	.	4bb\	.
16BB/	.	16d 16B\	.	16d 16B/	.	16f# 16d/	.	.	.	.	.	.	.	.	.	.	.	.	.	.	.	.	.	.
16BB/JJ	.	16dJJ 16B\	.	16dJJ 16B/	.	16f#JJ 16d/	.	.	.	.	.	.	.	16ff#/LL	16ff#\LL	p	.	.	.	.	.	.	.	.
16r	.	16r	.	16r	.	16r	.	.	.	.	.	.	.	16ff#/JJ	16ff#\JJ	.	.	.	.	.	.	.	.	.
16BB/LL	.	16dLL 16B\	.	16dLL 16B/	.	16f#LL 16d/	.	.	.	.	.	.	.	8ff#/	8ff#\	.	4r	.	8r	.	8r	.	8r	.
16BB/	.	16d 16B\	.	16d 16B/	.	16f# 16d/	.	.	.	.	.	.	.	.	.	.	.	.	.	.	.	.	.	.
16BB/JJ	.	16dJJ 16B\	.	16dJJ 16B/	.	16f#JJ 16d/	.	.	.	.	.	.	.	8r	8rdyy	.	.	.	16f#LL 16d/	.	16dd\LL	.	16ff#'\LL	.
16r	.	16r	.	16r	.	16r	.	.	.	.	.	.	.	.	.	.	.	.	16f#JJ 16d/	.	16dd\JJ	.	16ff#'\JJ	.
16BB/LL	.	16dLL 16B\	.	16dLL 16B/	.	16f#LL 16d/	.	.	.	.	.	.	.	4r	4rdyy	.	8r	.	8dL 8B/	.	8b\L	.	8dd'\L	.
16BB/	.	16d 16B\	.	16d 16B/	.	16f# 16d/	.	.	.	.	.	.	.	.	.	.	.	.	.	.	.	.	.	.
16BB/JJ	.	16dJJ 16B\	.	16dJJ 16B/	.	16f#JJ 16d/	.	.	.	.	.	.	.	.	.	.	8ddd 8ff#\	.	8ddJ 8f#/	.	8ff#\J	.	8ddd'\J	.
16r	.	16r	.	16r	.	16r	.	.	.	.	.	.	.	.	.	.	.	.	.	.	.	.	.	.
*Xrep	*	*Xrep	*	*Xrep	*	*Xrep	*	*	*	*	*	*	*	*	*	*	*	*	*	*	*	*	*	*
=33	=33	=33	=33	=33	=33	=33	=33	=33	=33	=33	=33	=33	=33	=33	=33	=33	=33	=33	=33	=33	=33	=33	=33	=33
*	*	*	*	*	*	*	*	*	*	*	*	*^	*	*	*	*	*	*	*	*	*	*	*	*
16F#\LL	.	16F#/LL	.	16eLL 16c#/	.	16f#LL 16A#X/	.	2.r	.	2.r	.	4rF	4rEEyy	.	8r	8rdyy	.	8.ccc#L 8.ee^<\	.	8.cc#L 8.e/	.	8.ee'^<\L	.	8.ccc#'^<\L	.
16F#\	.	16F#/	.	16e 16c#/	.	16f# 16A#/	.	.	.	.	.	.	.	.	.	.	.	.	.	.	.	.	.	.	.
16F#\JJ	.	16F#/JJ	.	16eJJ 16c#/	.	16f#JJ 16A#/	.	.	.	.	.	.	.	.	16ff#/LL	16ff#\LL	.	.	.	.	.	.	.	.	.
16r	.	16r	.	16r	.	16r	.	.	.	.	.	.	.	.	16ff#/JJ	16ff#\JJ	.	16bbJk 16dd\	.	16bJk 16d/	.	16dd'\Jk	.	16bb'\Jk	.
*rep	*	*rep	*	*rep	*	*rep	*	*	*	*	*	*	*	*	*	*	*	*	*	*	*	*	*	*	*
16F#\LL	.	16F#/LL	.	16eLL 16c#/	.	16f#LL 16A#/	.	.	.	.	.	4rF	4rEEyy	.	8ff#/	8ff#\	.	8aa#XL 8cc#'<\	.	8a#XL 8c#'>/	.	8cc#'\L	.	8aa#X'\L	.
16F#\	.	16F#/	.	16e 16c#/	.	16f# 16A#/	.	.	.	.	.	.	.	.	.	.	.	.	.	.	.	.	.	.	.
16F#\JJ	.	16F#/JJ	.	16eJJ 16c#/	.	16f#JJ 16A#/	.	.	.	.	.	.	.	.	8r	8rdyy	.	8ggn 8ee'<\	.	8gn 8e'>/	.	8ee'\	.	8ggn'\	.
16r	.	16r	.	16r	.	16r	.	.	.	.	.	.	.	.	.	.	.	.	.	.	.	.	.	.	.
*Xrep	*	*Xrep	*	*Xrep	*	*Xrep	*	*	*	*	*	*	*	*	*	*	*	*	*	*	*	*	*	*	*
*rep	*	*rep	*	*rep	*	*rep	*	*	*	*	*	*	*	*	*	*	*	*	*	*	*	*	*	*	*
16F#\LL	.	16F#/LL	.	16eLL 16c#/	.	16f#LL 16A#/	.	.	.	.	.	(4A#X/	4A#\	.	4r	4rdyy	.	8ff# 8dd'<\	.	8f# 8d'>/	.	8dd'\	.	8ff#'\	.
16F#\	.	16F#/	.	16e 16c#/	.	16f# 16A#/	.	.	.	.	.	.	.	.	.	.	.	.	.	.	.	.	.	.	.
16F#\JJ	.	16F#/JJ	.	16eJJ 16c#/	.	16f#JJ 16A#/	.	.	.	.	.	.	.	.	.	.	.	8eeJ 8cc#'<\	.	8eJ 8c#'>/	.	8cc#'\J	.	8ee'\J	.
16r	.	16r	.	16r	.	16r	.	.	.	.	.	.	.	.	.	.	.	.	.	.	.	.	.	.	.
*Xrep	*	*Xrep	*	*Xrep	*	*Xrep	*	*	*	*	*	*	*	*	*	*	*	*	*	*	*	*	*	*	*
*	*	*	*	*	*	*	*	*	*	*	*	*v	*v	*	*	*	*	*	*	*	*	*	*	*	*
!!LO:PB:g=original
=34	=34	=34	=34	=34	=34	=34	=34	=34	=34	=34	=34	=34	=34	=34	=34	=34	=34	=34	=34	=34	=34	=34	=34	=34
8B\	.	8B/	.	8d 8B/	.	8f# 8B/	.	2.r	.	2.r	.	4B\)	.	4rgg	4rdyy	.	16ddLL 16b\	.	(>16dLL 16B/	.	(16b\LL	.	(16dd\LL	.
.	.	.	.	.	.	.	.	.	.	.	.	.	.	.	.	.	16ee 16cc#\	.	16e 16c#/	.	16cc#\	.	16ee\	.
8r	.	8r	.	8r	.	8r	.	.	.	.	.	.	.	.	.	.	16ff# 16dd\	.	16f# 16d/	.	16dd\	.	16ff#\	.
.	.	.	.	.	.	.	.	.	.	.	.	.	.	.	.	.	16eeJJ 16cc#\	.	16eJJ 16c#/)	.	16cc#\JJ	.	16ee\JJ	.
8r	.	8r	.	8r	.	8r	.	.	.	.	.	8r	.	8ree	8rdyy	.	8dd 8b\	.	8d 8B/	.	8b\)	.	8dd\)	.
!	!	!LO:TX:t=P:problem=mixed beam	!	!LO:TX:t=P:problem=mixed beam	!	!LO:TX:t=P:problem=mixed beam	!	!	!	!	!	!	!	!	!	!	!	!	!	!	!	!	!	!
8d\L	ff	8ddL 8d\	ff	8dddL 8dd\	ff	8dddL 8dd\	ff	.	.	.	.	8d'\L	f	8dd'/L	8dd\L	.	8r	.	8r	.	8r	.	8r	.
8F#\	.	8F#'<\	.	8f#'<\	.	8f#'<\	.	.	.	.	.	8F#'\	.	8ff#'/	8f#\	.	4r	.	4r	.	4r	.	4r	.
8G#X\J	.	8G#X'<\J	.	8g#X'<\J	.	8g#X'<\J	.	.	.	.	.	8G#X'\J	.	8gg#X'/J	8g#X\J	.	.	.	.	.	.	.	.	.
*	*	*	*	*	*	*	*	*	*	*	*	*	*	*v	*v	*	*	*	*	*	*	*	*	*
=35	=35	=35	=35	=35	=35	=35	=35	=35	=35	=35	=35	=35	=35	=35	=35	=35	=35	=35	=35	=35	=35	=35	=35
16A\LL	fp p	16A/LL	fp p	16a/LL	fp p	16a/LL	fp p	8AA/	f	8a 8A/	f	8A\	.	8aa 8a/	.	4r	.	4r	.	4r	.	4r	.
16A\	.	16A/	.	16e 16c#/	.	16e 16c#/	.	.	.	.	.	.	.	.	.	.	.	.	.	.	.	.	.
16A\JJ	.	16A/JJ	.	16eJJ 16c#/	.	16eJJ 16c#/	.	8r	.	8r	.	8r	.	8r	.	.	.	.	.	.	.	.	.
16r	.	16r	.	16r	.	16r	.	.	.	.	.	.	.	.	.	.	.	.	.	.	.	.	.
16A\LL	.	16A/LL	.	16eLL 16c#/	.	16eLL 16c#/	.	4r	.	4r	.	4r	.	4r	.	4r	.	8r	.	8r	.	8r	.
16A\	.	16A/	.	16e 16c#/	.	16e 16c#/	.	.	.	.	.	.	.	.	.	.	.	.	.	.	.	.	.
16A\JJ	.	16A/JJ	.	16eJJ 16c#/	.	16eJJ 16c#/	.	.	.	.	.	.	.	.	.	.	.	8eL 8c#/	.	8cc#'\L	.	8ee'\L	.
16r	.	16r	.	16r	.	16r	.	.	.	.	.	.	.	.	.	.	.	.	.	.	.	.	.
*rep	*	*rep	*	*rep	*	*rep	*	*	*	*	*	*	*	*	*	*	*	*	*	*	*	*	*
16A\LL	.	16A/LL	.	16eLL 16c#/	.	16eLL 16c#/	.	4r	.	4r	.	4r	.	4r	.	8r	.	8a 8A/	.	8a'\	.	8aa'\	.
16A\	.	16A/	.	16e 16c#/	.	16e 16c#/	.	.	.	.	.	.	.	.	.	.	.	.	.	.	.	.	.
16A\JJ	.	16A/JJ	.	16eJJ 16c#/	.	16eJJ 16c#/	.	.	.	.	.	.	.	.	.	8ccc# 8ee\	.	8cc#J 8e/	.	8ee'\J	.	8ccc#'\J	.
16r	.	16r	.	16r	.	16r	.	.	.	.	.	.	.	.	.	.	.	.	.	.	.	.	.
*Xrep	*	*Xrep	*	*Xrep	*	*Xrep	*	*	*	*	*	*	*	*	*	*	*	*	*	*	*	*	*
=36	=36	=36	=36	=36	=36	=36	=36	=36	=36	=36	=36	=36	=36	=36	=36	=36	=36	=36	=36	=36	=36	=36	=36
*	*	*	*	*	*	*	*	*	*	*	*	*	*	*^	*	*	*	*	*	*	*	*	*
16A\LL	.	16A/LL	.	16eLL 16c#/	.	16eLL 16c#/	.	2.r	.	2.r	.	2.r	.	8ree	8rdyy	.	4aa 4cc#\	.	4a 4c#/	.	4cc#\	.	4aa'\	.
16A\	.	16A/	.	16e 16c#/	.	16e 16c#/	.	.	.	.	.	.	.	.	.	.	.	.	.	.	.	.	.	.
16A\JJ	.	16A/JJ	.	16eJJ 16c#/	.	16eJJ 16c#/	.	.	.	.	.	.	.	16ee/LL	16ee\LL	p	.	.	.	.	.	.	.	.
16r	.	16r	.	16r	.	16r	.	.	.	.	.	.	.	16ee/JJ	16ee\JJ	.	.	.	.	.	.	.	.	.
*rep	*	*rep	*	*rep	*	*rep	*	*	*	*	*	*	*	*	*	*	*	*	*	*	*	*	*	*
16A\LL	.	16A/LL	.	16eLL 16c#/	.	16eLL 16c#/	.	.	.	.	.	.	.	8ee/	8ee\	.	4r	.	8r	.	8r	.	8r	.
16A\	.	16A/	.	16e 16c#/	.	16e 16c#/	.	.	.	.	.	.	.	.	.	.	.	.	.	.	.	.	.	.
16A\JJ	.	16A/JJ	.	16eJJ 16c#/	.	16eJJ 16c#/	.	.	.	.	.	.	.	8ree	8rdyy	.	.	.	16eLL 16c#/	.	16cc#\LL	.	16ee\LL	.
16r	.	16r	.	16r	.	16r	.	.	.	.	.	.	.	.	.	.	.	.	16eJJ 16c#/	.	16cc#\JJ	.	16ee\JJ	.
*Xrep	*	*Xrep	*	*Xrep	*	*Xrep	*	*	*	*	*	*	*	*	*	*	*	*	*	*	*	*	*	*
*rep	*	*rep	*	*rep	*	*rep	*	*	*	*	*	*	*	*	*	*	*	*	*	*	*	*	*	*
16A\LL	.	16A/LL	.	16eLL 16c#/	.	16eLL 16c#/	.	.	.	.	.	.	.	4ree	4rdyy	.	8r	.	8aL 8A/	.	8a'\L	.	8aa'\L	.
16A\	.	16A/	.	16e 16c#/	.	16e 16c#/	.	.	.	.	.	.	.	.	.	.	.	.	.	.	.	.	.	.
16A\JJ	.	16A/JJ	.	16eJJ 16c#/	.	16eJJ 16c#/	.	.	.	.	.	.	.	.	.	.	8ccc# 8ee\	.	8cc#J 8e/	.	8ee'\J	.	8ccc#'\J	.
16r	.	16r	.	16r	.	16r	.	.	.	.	.	.	.	.	.	.	.	.	.	.	.	.	.	.
*Xrep	*	*Xrep	*	*Xrep	*	*Xrep	*	*	*	*	*	*	*	*	*	*	*	*	*	*	*	*	*	*
=37	=37	=37	=37	=37	=37	=37	=37	=37	=37	=37	=37	=37	=37	=37	=37	=37	=37	=37	=37	=37	=37	=37	=37	=37
16E\LL	.	16G#X/LL	.	16dLL 16B/	.	16eLL 16d/	.	2.r	.	2.r	.	4r	.	8ree	8rdyy	.	8.bbL 8.dd^<\	.	8.bL 8.d^>/	.	8.dd'^\L	.	8.bb^\L	.
16E\	.	16G#/	.	16d 16B/	.	16e 16d/	.	.	.	.	.	.	.	.	.	.	.	.	.	.	.	.	.	.
16E\JJ	.	16G#/JJ	.	16dJJ 16B/	.	16eJJ 16d/	.	.	.	.	.	.	.	16ee/LL	16ee\LL	.	.	.	.	.	.	.	.	.
16r	.	16r	.	16r	.	16r	.	.	.	.	.	.	.	16ee/JJ	16ee\JJ	.	16aaJk 16cc#\	.	16aJk 16c#/	.	16cc#'\Jk	.	16aa'\Jk	.
*rep	*	*rep	*	*rep	*	*rep	*	*	*	*	*	*	*	*	*	*	*	*	*	*	*	*	*	*
16E\LL	.	16G#/LL	.	16dLL 16B/	.	16eLL 16d/	.	.	.	.	.	4r	.	8ee/	8ee\	.	8gg#XL 8b\	.	8g#XL 8B/	.	8b'\L	.	8gg#X'\L	.
16E\	.	16G#/	.	16d 16B/	.	16e 16d/	.	.	.	.	.	.	.	.	.	.	.	.	.	.	.	.	.	.
16E\JJ	.	16G#/JJ	.	16dJJ 16B/	.	16eJJ 16d/	.	.	.	.	.	.	.	8ree	8rdyy	.	16ff#L 16dd\	.	16f#L 16d/	.	16dd'\L	.	16ff#'\L	.
16r	.	16r	.	16r	.	16r	.	.	.	.	.	.	.	.	.	.	16ff#JJ 16dd\	.	16f#JJ 16d/	.	16dd'\JJ	.	16ff#'\	.
*Xrep	*	*Xrep	*	*Xrep	*	*Xrep	*	*	*	*	*	*	*	*	*	*	*	*	*	*	*	*	*	*
*rep	*	*rep	*	*rep	*	*rep	*	*	*	*	*	*	*	*	*	*	*	*	*	*	*	*	*	*
16E\LL	.	16G#/LL	.	16dLL 16B/	.	16eLL 16d/	.	.	.	.	.	(4G#X\	.	4ree	4rdyy	.	16eeLL 16cc#\	.	16eLL 16c#/	.	16cc#'\LL	.	16ee'\	.
16E\	.	16G#/	.	16d 16B/	.	16e 16d/	.	.	.	.	.	.	.	.	.	.	16ee 16cc#\	.	16e 16c#/	.	16cc#'\	.	16ee'\	.
16E\JJ	.	16G#/JJ	.	16dJJ 16B/	.	16eJJ 16d/	.	.	.	.	.	.	.	.	.	.	16dd 16b\	.	16d 16B/	.	16b'\	.	16dd'\	.
16r	.	16r	.	16r	.	16r	.	.	.	.	.	.	.	.	.	.	16ddJJ 16b\	.	16d#XJJ 16B/	.	16b'\JJ	.	16dd'\JJ	.
*Xrep	*	*Xrep	*	*Xrep	*	*Xrep	*	*	*	*	*	*	*	*	*	*	*	*	*	*	*	*	*	*
*	*	*	*	*	*	*	*	*	*	*	*	*	*	*v	*v	*	*	*	*	*	*	*	*	*
=38	=38	=38	=38	=38	=38	=38	=38	=38	=38	=38	=38	=38	=38	=38	=38	=38	=38	=38	=38	=38	=38	=38	=38
8AA/	.	8A/	.	8c#/	.	8e 8c#/	.	2.r	.	2.r	.	4A\)	.	2.r	.	16cc#LL 16a\	.	(>16c#LL 16A/	.	(16a\LL	.	(16cc#\LL	.
.	.	.	.	.	.	.	.	.	.	.	.	.	.	.	.	16dd 16b\	.	16d 16B/	.	16b\	.	16dd\	.
8r	.	8r	.	8r	.	8r	.	.	.	.	.	.	.	.	.	16ee 16cc#\	.	16e 16c#/	.	16cc#\	.	16ee\	.
.	.	.	.	.	.	.	.	.	.	.	.	.	.	.	.	16ddJJ 16b\	.	16dJJ 16B/)	.	16b\JJ)	.	16dd\JJ)	.
8r	.	8r	.	8r	.	8r	.	.	.	.	.	8r	.	.	.	8cc# 8a\	.	8c# 8A/	.	8a\	.	8cc#\	.
8Gn\L	ff	8gn'\L	ff	8gnL 8G'/	ff	8ggnL 8g'/	ff	.	.	.	.	8Gn'\L	f	.	.	8r	.	8r	.	8r	.	8r	.
8BB\	.	8B'\	.	8B'/	.	8B'/	.	.	.	.	.	8BB'\	.	.	.	4r	.	4r	.	4r	.	4r	.
8C#\J	.	8c#'\J	.	8c#'/J	.	8c#'/J	.	.	.	.	.	8C#'\J	.	.	.	.	.	.	.	.	.	.	.
=39	=39	=39	=39	=39	=39	=39	=39	=39	=39	=39	=39	=39	=39	=39	=39	=39	=39	=39	=39	=39	=39	=39	=39
8D\	.	8d\	.	8d/	.	8d/	.	8D\	f	8d/	f	8D\	.	8r	.	2.r	.	8r	.	2.r	.	8r	.
.	.	.	.	.	.	16qqee/	p	.	.	.	.	.	.	.	.	.	.	.	.	.	.	16qqee/	.
!	!	!	!	!	!	!	!	!	!	!	!	!	!	!	!LO:DY:a	!	!	!	!LO:DY:a	!	!	!	!
8D\L	p	8d\	p	8f# 8A/	p	(16dd\LL	.	8r	.	8r	.	8A 8F#\	p	8dd 8f#/	p	.	.	8f# 8d/	p	.	.	(16dd\LL	.
.	.	.	.	.	.	16cc#\JJ	.	.	.	.	.	.	.	.	.	.	.	.	.	.	.	16cc#\JJ	.
*	*	*tremolo	*	*tremolo	*	*	*	*	*	*	*	*	*	*tremolo	*	*	*	*tremolo	*	*	*	*	*
8D\	.	8d\L	.	8f#L 8A/	.	16dd\LL)	.	4r	.	4r	.	8AL 8F#\	.	8ddL 8f#/	.	.	.	8f#L 8d/	.	.	.	16dd\LL)	.
.	.	.	.	.	.	16ee'\	.	.	.	.	.	.	.	.	.	.	.	.	.	.	.	16ee'\	.
8D\	.	8d\	.	8f# 8A/	.	16ff#'\	.	.	.	.	.	8A 8F#\	.	8dd 8f#/	.	.	.	8f# 8d/	.	.	.	16ff#'\	.
.	.	.	.	.	.	16gg'\JJ	.	.	.	.	.	.	.	.	.	.	.	.	.	.	.	16gg'\JJ	.
8D\	.	8d\	.	8f# 8A/	.	(8bb\L	.	4r	.	4r	.	8A 8F#\	.	8dd 8f#/	.	.	.	8f# 8d/	.	.	.	(8bb^<\L	.
8D\J	.	8d\J	.	8f#J 8A/	.	16aa\Jk)	.	.	.	.	.	8AJ 8F#\	.	8ddJ 8f#/	.	.	.	8f#J 8d/	.	.	.	16aa\Jk)	.
.	.	.	.	.	.	16r	.	.	.	.	.	.	.	.	.	.	.	.	.	.	.	16r	.
=40	=40	=40	=40	=40	=40	=40	=40	=40	=40	=40	=40	=40	=40	=40	=40	=40	=40	=40	=40	=40	=40	=40	=40
*tremolo	*	*	*	*	*	*	*	*	*	*	*	*	*	*	*	*	*	*	*	*	*	*	*
!	!	!	!	!	!	!	!	!	!	!	!	!	!	!	!	!	!	!	!	!	!	!LO:TX:a:t=Col V&colon; 1mo	!
8D\L	.	8d\L	.	8f#L 8A/	.	(8.bb^<\L	.	2.r	.	2.r	.	8r	.	8r	.	2.r	.	8r	.	2.r	.	(yy8.bbyy^<\L	.
8D\	.	8d\	.	8f# 8A/	.	.	.	.	.	.	.	8A 8F#\	.	8dd 8f#/	.	.	.	8f# 8d/	.	.	.	.	.
.	.	.	.	.	.	16aa\Jk	.	.	.	.	.	.	.	.	.	.	.	.	.	.	.	16aayy\Jk	.
8D\	.	8d\	.	8f# 8A/	.	16gg\LL	.	.	.	.	.	8AL 8F#\	.	8ddL 8f#/	.	.	.	8f#L 8d/	.	.	.	16ggyy\LL	.
.	.	.	.	.	.	16ff#\	.	.	.	.	.	.	.	.	.	.	.	.	.	.	.	16ff#yy\	.
8D\	.	8d\	.	8f# 8A/	.	16ee\	.	.	.	.	.	8A 8F#\	.	8dd 8f#/	.	.	.	8f# 8d/	.	.	.	16eeyy\	.
.	.	.	.	.	.	16ff#\JJ)	.	.	.	.	.	.	.	.	.	.	.	.	.	.	.	16ff#yy\JJ)yy	.
8D\	.	8d\	.	8f# 8A/	.	(8.dd\L	.	.	.	.	.	8A 8F#\	.	8dd 8f#/	.	.	.	8f# 8d/	.	.	.	(yy8.ddyy\L	.
8D\J	.	8d\J	.	8f#J 8A/	.	.	.	.	.	.	.	8AJ 8F#\	.	8ddJ 8f#/	.	.	.	8f#J 8d/	.	.	.	.	.
.	.	.	.	.	.	16dd#X\Jk)	.	.	.	.	.	.	.	.	.	.	.	.	.	.	.	16dd#yyX\Jk)yy	.
=41	=41	=41	=41	=41	=41	=41	=41	=41	=41	=41	=41	=41	=41	=41	=41	=41	=41	=41	=41	=41	=41	=41	=41
8AA/L	.	8eL 8c#\	.	8gL 8A/	.	16ee\LL	.	2.r	.	2.r	.	8r	.	8r	.	2.r	.	8r	.	2.r	.	16eeyy\LL	.
.	.	.	.	.	.	16cc#\JJ	.	.	.	.	.	.	.	.	.	.	.	.	.	.	.	16cc#yy\JJ	.
8AA/	.	8e 8c#\	.	8g 8A/	.	4a\	.	.	.	.	.	8c# 8A\	.	8ee 8a/	.	.	.	8g 8e/	.	.	.	4ayy\	.
8AA/	.	8e 8c#\	.	8g 8A/	.	.	.	.	.	.	.	8c#L 8A\	.	8eeL 8a/	.	.	.	8gL 8d/	.	.	.	.	.
.	.	.	.	.	.	16qqcc#/	.	.	.	.	.	.	.	.	.	.	.	.	.	.	.	16qqcc#yy/	.
8AA/	.	8e 8c#\	.	8g 8A/	.	16b\LL	.	.	.	.	.	8c# 8A\	.	8ee 8a/	.	.	.	8g 8d/	.	.	.	16byy\LL	.
.	.	.	.	.	.	16a\JJ	.	.	.	.	.	.	.	.	.	.	.	.	.	.	.	16ayy\JJ	.
.	.	.	.	.	.	16qqcc#/	.	.	.	.	.	.	.	.	.	.	.	.	.	.	.	16qqcc#yy/	.
8AA/	.	8e 8c#\	.	8g 8A/	.	16b\LL	.	.	.	.	.	8c# 8A\	.	8ee 8a/	.	.	.	8g 8d/	.	.	.	16byy\LL	.
.	.	.	.	.	.	16a\JJ	.	.	.	.	.	.	.	.	.	.	.	.	.	.	.	16ayy\JJ	.
.	.	.	.	.	.	16qqcc#/	.	.	.	.	.	.	.	.	.	.	.	.	.	.	.	16qqcc#yy/	.
8AA/J	.	8eJ 8c#\	.	8gJ 8A/	.	16b\LL	.	.	.	.	.	8c#J 8A\	.	8eeJ 8a/	.	.	.	8gJ 8d/	.	.	.	16byy\LL	.
.	.	.	.	.	.	16a\JJ	.	.	.	.	.	.	.	.	.	.	.	.	.	.	.	16ayy\JJ	.
=42	=42	=42	=42	=42	=42	=42	=42	=42	=42	=42	=42	=42	=42	=42	=42	=42	=42	=42	=42	=42	=42	=42	=42
8D\L	.	8d\L	.	8f#L 8A/	.	(32dd\KLL	.	4r	.	4r	.	8r	.	8r	.	4r	.	8r	.	4r	.	(yy32ddyy\KLL	.
.	.	.	.	.	.	16ff#\JJ)	.	.	.	.	.	.	.	.	.	.	.	.	.	.	.	16ff#yy\JJ)yy	.
.	.	.	.	.	.	32r	.	.	.	.	.	.	.	.	.	.	.	.	.	.	.	32ryy	.
*	*	*	*	*	*	*	*	*	*	*	*	*Xtremolo	*	*Xtremolo	*	*	*	*	*	*	*	*	*
8D\	.	8d\	.	8f# 8A/	.	(32dd\KLL	.	.	.	.	.	8dL 8D\	.	8ff#L 8dd\	.	.	.	8f#L 8d/	.	.	.	(yy32ddyy\KLL	.
.	.	.	.	.	.	16aa\JJ)	.	.	.	.	.	.	.	.	.	.	.	.	.	.	.	16aayy\JJ)yy	.
.	.	.	.	.	.	32r	.	.	.	.	.	.	.	.	.	.	.	.	.	.	.	32ryy	.
8D\	.	8d\	.	8f# 8A/	.	(32dd\KLL	.	4r	.	4r	.	8d 8D\	.	8ff# 8dd\	.	4r	.	8f# 8d/	.	4r	.	(yy32ddyy\KLL	.
.	.	.	.	.	.	16ddd\JJ)	.	.	.	.	.	.	.	.	.	.	.	.	.	.	.	16dddyy\JJ)yy	.
.	.	.	.	.	.	32r	.	.	.	.	.	.	.	.	.	.	.	.	.	.	.	32ryy	.
8D\J	.	8d\J	.	8f#J 8A/	.	(32ff#\KLL	.	.	.	.	.	8dJ 8D\	.	8ff#J 8dd\	.	.	.	8f#J 8d/	.	.	.	(yy32ff#yy\KLL	.
.	.	.	.	.	.	16fff#\JJ)	.	.	.	.	.	.	.	.	.	.	.	.	.	.	.	16fff#yy\JJ)yy	.
.	.	.	.	.	.	32r	.	.	.	.	.	.	.	.	.	.	.	.	.	.	.	32ryy	.
.	.	.	.	.	.	16qqaa/	f	.	.	.	.	.	.	.	.	.	.	.	.	.	.	16qqaayy/	.
*	*	*	*	*	*	*	*	*	*	*	*	*	*	*	*	*	*	*tuplet	*	*	*	*	*
!	!	!	!	!	!	!	!	!	!	!	!	!	!	!	!	!LO:TUP:a:problem=brak klamry, numer	!	!LO:TUP:a:problem=klamra łukowa, numer	!	!LO:TUP:a:problem=klamra łukowa, numer	!	!	!
4A 4E 4AA\	f	4a 4e 4A\	f	4aa 4a 4e 4A/	f	8aaa\	.	4AA/	f	4a 4A/	f	4A 4AA\	f	4ee 4a\	f	24aa\LL	f	24aa\LL	f	24aa\LL	.	8aaayy\	.
.	.	.	.	.	.	.	.	.	.	.	.	.	.	.	.	24bb\	.	24bb\	.	24bb\	.	.	.
.	.	.	.	.	.	.	.	.	.	.	.	.	.	.	.	24aa\	.	24aa\	.	24aa\	.	.	.
.	.	.	.	.	.	8r	.	.	.	.	.	.	.	.	.	24gg\	.	24gg\	.	24gg\	.	8ryy	.
.	.	.	.	.	.	.	.	.	.	.	.	.	.	.	.	24ee\	.	24ee\	.	24ee\	.	.	.
.	.	.	.	.	.	.	.	.	.	.	.	.	.	.	.	24ff#\JJ	.	24ff#\JJ	.	24ff#\JJ	.	.	.
*kcancel	*	*	*	*	*	*	*	*	*	*	*	*	*	*	*	*	*	*	*	*	*	*	*
=43:|!	=43:|!	=43:|!	=43:|!	=43:|!	=43:|!	=43:|!	=43:|!	=43:|!	=43:|!	=43:|!	=43:|!	=43:|!	=43:|!	=43:|!	=43:|!	=43:|!	=43:|!	=43:|!	=43:|!	=43:|!	=43:|!	=43:|!	=43:|!
*>C	*	*>C	*	*>C	*	*>C	*	*>C	*	*>C	*	*>C	*	*>C	*	*>C	*	*>C	*	*>C	*	*>C	*
*k[f#]	*	*k[f#]	*	*k[f#]	*	*k[f#]	*	*k[f#]	*	*k[f#]	*	*k[f#]	*	*k[f#]	*	*k[f#]	*	*k[f#]	*	*k[f#]	*	*k[f#]	*
*G:	*	*G:	*	*G:	*	*G:	*	*G:	*	*F:	*	*G:	*	*F:	*	*G:	*	*G:	*	*G:	*	*G:	*
*M3/4	*	*M3/4	*	*M3/4	*	*M3/4	*	*M3/4	*	*M3/4	*	*M3/4	*	*M3/4	*	*M3/4	*	*M3/4	*	*M3/4	*	*M3/4	*
!LO:TX:b:t=pizz	!	!	!	!	!	!	!	!	!	!	!	!	!	!	!	!	!	!	!	!	!	!	!
!!LO:TX:a:B:t=Trio
8G\	.	8BL 8G/	.	8G/L	.	8B/L	.	2.r	.	2.r	.	8BL 8G\	.	2.r	.	2.r	.	2.r	.	2.r	.	2.r	.
8r	.	16dL 16B/	.	16B^/L	.	16d^/L	.	.	.	.	.	16dL 16B^<\	.	.	.	.	.	.	.	.	.	.	.
.	.	16dJJ 16B/	.	16B/JJ	.	16d/JJ	.	.	.	.	.	16dJJ 16B\	.	.	.	.	.	.	.	.	.	.	.
8G\	.	8BL 8G'/	.	8G/L	.	8B/L	.	.	.	.	.	8BL 8G'\	.	.	.	.	.	.	.	.	.	.	.
8r	.	8dJ 8B'/	.	8B/J	.	8d/J	.	.	.	.	.	8dJ 8B'\	.	.	.	.	.	.	.	.	.	.	.
8G\	.	8BL 8G/	.	8G/L	.	8B/L	.	.	.	.	.	8BL 8G'\	.	.	.	.	.	.	.	.	.	.	.
8r	.	8dJ 8B/	.	8B/J	.	8d/J	.	.	.	.	.	8dJ 8B'\	.	.	.	.	.	.	.	.	.	.	.
=44	=44	=44	=44	=44	=44	=44	=44	=44	=44	=44	=44	=44	=44	=44	=44	=44	=44	=44	=44	=44	=44	=44	=44
*rep	*	*rep	*	*rep	*	*rep	*	*	*	*	*	*rep	*	*	*	*	*	*	*	*	*	*	*
8G\	.	8BL 8G/	.	8G/L	.	8B/L	.	2.r	.	2.r	.	8BL 8G\	.	2.r	.	2.r	.	2.r	.	4r	.	8r	.
.	.	.	.	.	.	.	.	.	.	.	.	.	.	.	.	.	.	.	.	.	.	16qqaa/	.
8r	.	16dL 16B/	.	16B^/L	.	16d^/L	.	.	.	.	.	16dL 16B^<\	.	.	.	.	.	.	.	.	.	(16gg\LL	.
.	.	16dJJ 16B/	.	16B/JJ	.	16d/JJ	.	.	.	.	.	16dJJ 16B\	.	.	.	.	.	.	.	.	.	16ff#\JJ)	.
8G\	.	8BL 8G'/	.	8G/L	.	8B/L	.	.	.	.	.	8BL 8G'\	.	.	.	.	.	.	.	4r	.	16gg'\LL	.
.	.	.	.	.	.	.	.	.	.	.	.	.	.	.	.	.	.	.	.	.	.	16aa'\	.
8r	.	8dJ 8B'/	.	8B/J	.	8d/J	.	.	.	.	.	8dJ 8B'\	.	.	.	.	.	.	.	.	.	16bb'\	.
.	.	.	.	.	.	.	.	.	.	.	.	.	.	.	.	.	.	.	.	.	.	16ccc'\JJ	.
8G\	.	8BL 8G/	.	8G/L	.	8B/L	.	.	.	.	.	8BL 8G'\	.	.	.	.	.	.	.	8r	.	8ddd'\L	.
8r	.	8dJ 8B/	.	8B/J	.	8d/J	.	.	.	.	.	8dJ 8B'\	.	.	.	.	.	.	.	8gg'\	.	8bb'\J	.
*Xrep	*	*Xrep	*	*Xrep	*	*Xrep	*	*	*	*	*	*Xrep	*	*	*	*	*	*	*	*	*	*	*
=45	=45	=45	=45	=45	=45	=45	=45	=45	=45	=45	=45	=45	=45	=45	=45	=45	=45	=45	=45	=45	=45	=45	=45
*rep	*	*rep	*	*rep	*	*rep	*	*	*	*	*	*rep	*	*	*	*	*	*Xtremolo	*	*	*	*	*
8G\	.	8BL 8G/	.	8G/L	.	8B/L	.	2.r	.	2.r	.	8BL 8G\	.	2.r	.	2.r	.	8r	.	8bb'\L	.	8ddd'\L	.
8r	.	16dL 16B/	.	16B^/L	.	16d^/L	.	.	.	.	.	16dL 16B^<\	.	.	.	.	.	8bL 8g'/	.	8gg'\	.	8bb'\	.
.	.	16dJJ 16B/	.	16B/JJ	.	16d/JJ	.	.	.	.	.	16dJJ 16B\	.	.	.	.	.	.	.	.	.	.	.
8G\	.	8BL 8G'/	.	8G/L	.	8B/L	.	.	.	.	.	8BL 8G'\	.	.	.	.	.	8dd 8b'/	.	8bb'\	.	8ddd'\	.
8r	.	8dJ 8B'/	.	8B/J	.	8d/J	.	.	.	.	.	8dJ 8B'\	.	.	.	.	.	8b 8g'/	.	8gg'\	.	8bb'\	.
8G\	.	8BL 8G/	.	8G/L	.	8B/L	.	.	.	.	.	8BL 8G'\	.	.	.	.	.	8dd 8b'/	.	8bb'\	.	8ddd'\	.
8r	.	8dJ 8B/	.	8B/J	.	8d/J	.	.	.	.	.	8dJ 8B'\	.	.	.	.	.	8bJ 8g'/	.	8gg'\J	.	8bb'\J	.
*Xrep	*	*Xrep	*	*Xrep	*	*Xrep	*	*	*	*	*	*Xrep	*	*	*	*	*	*	*	*	*	*	*
=46	=46	=46	=46	=46	=46	=46	=46	=46	=46	=46	=46	=46	=46	=46	=46	=46	=46	=46	=46	=46	=46	=46	=46
*rep	*	*rep	*	*	*	*	*	*	*	*	*	*rep	*	*	*	*	*	*	*	*	*	*	*
8G\	.	8BL 8G/	.	8G/L	.	8B/L	.	2.r	.	2.r	.	8BL 8G\	.	2.r	.	4r	.	8dd 8b\	.	8bb\	.	8ddd\	.
8r	.	16dL 16B/	.	16B^>/L	.	16d^>/L	.	.	.	.	.	16dL 16B^<\	.	.	.	.	.	8r	.	8r	.	8r	.
.	.	16dJJ 16B/	.	16B/JJ	.	16d/JJ	.	.	.	.	.	16dJJ 16B\	.	.	.	.	.	.	.	.	.	.	.
8G\	.	8BL 8G'/	.	8G/L	.	8B/L	.	.	.	.	.	8BL 8G'\	.	.	.	2bb 2gg^<\	.	2gg 2b^<\	.	4.bb^<\	.	4.ggg 4.ee^<\	.
8r	.	8dJ 8B'/	.	8B/J	.	8d/J	.	.	.	.	.	8dJ 8B'\	.	.	.	.	.	.	.	.	.	.	.
!	!	!	!	!	!	!LO:TX:t=P:problem=mixed beam	!	!	!	!	!	!	!	!	!	!	!	!	!	!	!	!	!
8G\	.	8BL 8G/	.	8G/L	.	8g/L	.	.	.	.	.	8BL 8G'\	.	.	.	.	.	.	.	.	.	.	.
8r	.	8dJ 8B/	.	8dJ 8B/	.	(16gg\L	.	.	.	.	.	8dJ 8B'\	.	.	.	.	.	.	.	8r	.	(16gg\LL	.
.	.	.	.	.	.	16bb\JJ)	.	.	.	.	.	.	.	.	.	.	.	.	.	.	.	16bb\JJ)	.
*Xrep	*	*Xrep	*	*	*	*	*	*	*	*	*	*Xrep	*	*	*	*	*	*	*	*	*	*	*
=47	=47	=47	=47	=47	=47	=47	=47	=47	=47	=47	=47	=47	=47	=47	=47	=47	=47	=47	=47	=47	=47	=47	=47
*	*	*	*	*	*	*	*	*	*	*	*	*	*	*	*	*	*	*	*	*	*	*	*
8D\	.	8AL 8F#/	.	8A/L	.	(16aa\LL	.	2.r	.	2.r	.	8cL 8A\	.	8ff# 8dd\	p	8r	.	8r	.	2.r	.	(16aa\LL	.
.	.	.	.	.	.	16ccc\JJ)	.	.	.	.	.	.	.	.	.	.	.	.	.	.	.	16ccc\JJ)	.
8r	.	16dL 16A/	.	16dL 16c^>/	.	4dd^<\	.	.	.	.	.	16dL 16c^<\	.	8r	.	4dd 4d^/	p	8cc 8a/	.	.	.	4dd^\	.
.	.	16dJJ 16A/	.	16dJJ 16c/	.	.	.	.	.	.	.	16dJJ 16c\	.	.	.	.	.	.	.	.	.	.	.
*	*	*Xtremolo	*	*Xtremolo	*	*	*	*	*	*	*	*	*	*	*	*	*	*	*	*	*	*	*
8D\	.	8AL 8F#/	.	8A/L	.	.	.	.	.	.	.	8cL 8A\	.	8ff# 8dd\	.	.	.	8r	.	.	.	.	.
8r	.	8d 8A/	.	8d 8c/	.	(16ff#\LL	.	.	.	.	.	8dJ 8c\	.	8r	.	8r	.	8cc 8a/	.	.	.	(16ff#\LL	.
.	.	.	.	.	.	16aa\JJ)	.	.	.	.	.	.	.	.	.	.	.	.	.	.	.	16aa\JJ)	.
8D\	.	8A 8F#/	.	8A/	.	8ccc'\L	.	.	.	.	.	8cL 8A\	.	8ff# 8dd\	.	4r	.	8r	.	.	.	8ccc'\L	.
8r	.	8dJ 8A/	.	8dJ 8c/	.	(16ff#\L	.	.	.	.	.	8dJ 8c\	.	8r	.	.	.	8cc 8a/	.	.	.	(16ff#\L	.
.	.	.	.	.	.	16aa\JJ)	.	.	.	.	.	.	.	.	.	.	.	.	.	.	.	16aa\JJ)	.
*	*	*	*	*	*	*	*	*	*	*	*	*	*	*	*	*	*	*	*	*	*	*	*
=48	=48	=48	=48	=48	=48	=48	=48	=48	=48	=48	=48	=48	=48	=48	=48	=48	=48	=48	=48	=48	=48	=48	=48
*	*	*	*	*	*	*	*	*	*	*	*	*	*	*	*	*^	*	*	*	*	*	*	*
8G\	.	8BL 8G/	.	8G/L	.	(16gg\LL	.	2.r	.	2.r	.	8BL 8G\	.	8gg 8dd\	.	8rdd	8rcyy	.	8r	.	2.r	.	(16gg\LL	.
.	.	.	.	.	.	16bb\JJ)	.	.	.	.	.	.	.	.	.	.	.	.	.	.	.	.	16bb\JJ)	.
8r	.	16dL 16B/	.	16dL 16B/	.	4ddd^<\	.	.	.	.	.	16dL 16B^<\	.	8r	.	4dd/	4dd^\	.	8b 8g/	.	.	.	4ddd^<\	.
.	.	16dJJ 16B/	.	16dJJ 16B/	.	.	.	.	.	.	.	16dJJ 16B\	.	.	.	.	.	.	.	.	.	.	.	.
8G\	.	8BL 8G/	.	8G/L	.	.	.	.	.	.	.	8BL 8G\	.	8gg 8dd\	.	.	.	.	8r	.	.	.	.	.
8r	.	8d 8B/	.	8d 8B/	.	(16gg\LL	.	.	.	.	.	8d 8B\	.	8r	.	8rdd	8rcyy	.	8b 8g/	.	.	.	(16gg\LL	.
.	.	.	.	.	.	16bb\JJ)	.	.	.	.	.	.	.	.	.	.	.	.	.	.	.	.	16bb\JJ)	.
!	!	!	!	!	!	!LO:TX:t=P:problem=mixed beam	!	!	!	!	!	!	!	!	!	!	!	!	!	!	!	!	!	!
8G\	.	8B 8G/	.	8G/	.	8g'/L	.	.	.	.	.	8B 8G\	.	8gg 8dd\	.	4rdd	4rcyy	.	8r	.	.	.	8ggg'\L	.
8r	.	8dJ 8B/	.	8dJ 8B/	.	(16gg\L	.	.	.	.	.	8dJ 8B\	.	8r	.	.	.	.	8b 8g/	.	.	.	(16gg\L	.
.	.	.	.	.	.	16bb\JJ)	.	.	.	.	.	.	.	.	.	.	.	.	.	.	.	.	16bb\JJ)	.
=49	=49	=49	=49	=49	=49	=49	=49	=49	=49	=49	=49	=49	=49	=49	=49	=49	=49	=49	=49	=49	=49	=49	=49	=49
8D\	.	8AL 8F#/	.	8A/L	.	(16aa\LL	.	2.r	.	2.r	.	8cL 8A\	.	8ff# 8dd\	.	8rdd	8rcyy	.	8r	.	2.r	.	16aa\LL	.
.	.	.	.	.	.	16ccc\JJ)	.	.	.	.	.	.	.	.	.	.	.	.	.	.	.	.	16ccc\JJ	.
8r	.	16dL 16A/	.	16dL 16c/	.	4dd^<\	.	.	.	.	.	16dL 16c^<\	.	8r	.	4dd/	4dd^\	.	8cc 8a/	.	.	.	4dd^<\	.
.	.	16dJJ 16A/	.	16dJJ 16c/	.	.	.	.	.	.	.	16dJJ 16c\	.	.	.	.	.	.	.	.	.	.	.	.
8D\	.	8AL 8F#/	.	8A/L	.	.	.	.	.	.	.	8cL 8A\	.	8ff# 8dd\	.	.	.	.	8r	.	.	.	.	.
8r	.	8d/	.	8d 8c/	.	(16ff#\LL	.	.	.	.	.	8dJ 8c\	.	8r	.	8rdd	8rcyy	.	8cc 8a/	.	.	.	(16ff#\LL	.
.	.	.	.	.	.	16aa\JJ)	.	.	.	.	.	.	.	.	.	.	.	.	.	.	.	.	16aa\JJ)	.
8D\	.	8A 8F#/	.	8A/	.	8ccc'\L	.	.	.	.	.	8cL 8A\	.	8ff# 8dd\	.	4rdd	4rcyy	.	8r	.	.	.	8ccc'\L	.
8r	.	8d/J	.	8dJ 8c/	.	(16dd\L	.	.	.	.	.	8dJ 8c\	.	8r	.	.	.	.	8cc 8a/	.	.	.	(16dd\L	.
.	.	.	.	.	.	16ff#\JJ)	.	.	.	.	.	.	.	.	.	.	.	.	.	.	.	.	16ff#\JJ)	.
=50	=50	=50	=50	=50	=50	=50	=50	=50	=50	=50	=50	=50	=50	=50	=50	=50	=50	=50	=50	=50	=50	=50	=50	=50
!	!	!	!	!	!	!	!	!	!	!	!	!LO:TX:t=P:problem=oznaczenie forte wymazano	!	!	!	!	!	!	!	!	!LO:TX:t=P:problem=mixed beam	!	!	!
8G\	.	8BL 8G/	.	8G/L	.	8gg/L	f	2.r	.	2.r	.	8BL 8G\	.	8ggL 8dd\	f	8g'/L	8g\L	f	8bL 8g/	f	8g/L	f	8gg'\L	f
8r	.	16dL 16B/	.	16dL 16B/	.	8ggJ 8b 8d 8G/	.	.	.	.	.	16dL 16B^<\	.	8ggJ 8dd\	.	8ggJ 8b'/	8b\J	.	8ggJ 8b/	.	8gg'\J	.	8ggg'\J	.
.	.	16dJJ 16B/	.	16dJJ 16B/	.	.	.	.	.	.	.	16dJJ 16B\	.	.	.	.	.	.	.	.	.	.	.	.
8G\	.	8BL 8G/	.	8G/L	.	4r	.	.	.	.	.	8BL 8G\	.	4r	.	4rdd	4rcyy	.	4r	.	4r	.	4r	.
8r	.	8d 8B/	.	8d 8B/	.	.	.	.	.	.	.	8dJ 8B\	.	.	.	.	.	.	.	.	.	.	.	.
8G\	.	8B 8G/	.	8G/	.	4r	.	.	.	.	.	8BL 8G\	.	4r	.	4rdd	4rcyy	.	4r	.	4r	.	4r	.
8r	.	8dJ 8B/	.	8dJ 8B/	.	.	.	.	.	.	.	8dJ 8B\	.	.	.	.	.	.	.	.	.	.	.	.
*	*	*	*	*	*	*	*	*	*	*	*	*	*	*	*	*v	*v	*	*	*	*	*	*	*
=51:|!|:	=51:|!|:	=51:|!|:	=51:|!|:	=51:|!|:	=51:|!|:	=51:|!|:	=51:|!|:	=51:|!|:	=51:|!|:	=51:|!|:	=51:|!|:	=51:|!|:	=51:|!|:	=51:|!|:	=51:|!|:	=51:|!|:	=51:|!|:	=51:|!|:	=51:|!|:	=51:|!|:	=51:|!|:	=51:|!|:	=51:|!|:
*>D	*	*>D	*	*>D	*	*>D	*	*>D	*	*>D	*	*>D	*	*>D	*	*>D	*	*>D	*	*>D	*	*>D	*
*	*	*	*	*	*	*	*	*	*	*	*	*	*	*	*	*	*	*^	*	*	*	*	*
!	!	!	!	!	!	!LO:TX:a:i:t=divisi	!	!	!	!	!	!	!	!	!	!	!	!LO:TX:b:i:t=2do	!	!	!	!	!	!
8E\	.	8e\L	.	8g/L	.	(16bbLL 16b/	p	2.r	.	2.r	.	8r	.	8gg 8ee\	p	2.r	.	2.raa	8b\L	.	8b\L	p	2.r	.
.	.	.	.	.	.	16ccc 16cc/	.	.	.	.	.	.	.	.	.	.	.	.	.	.	.	.	.	.
!	!	!	!	!	!	!LO:TX:b:i:t=legato	!	!	!	!	!	!	!	!	!	!	!	!	!	!	!	!	!	!
8r	.	16B\L	.	16B/L	.	16bb 16b/	.	.	.	.	.	8B\	p	8r	.	.	.	.	16b\L	.	16b\L	.	.	.
.	.	16B\JJ	.	16B/JJ	.	16cccJJ 16cc/	.	.	.	.	.	.	.	.	.	.	.	.	16b\JJ	.	16b\JJ	.	.	.
8E\	.	8e\L	.	8g/L	.	16bbLL 16b/	.	.	.	.	.	8r	.	8gg 8ee\	.	.	.	.	8b\L	.	8b\L	.	.	.
.	.	.	.	.	.	16ccc 16cc/	.	.	.	.	.	.	.	.	.	.	.	.	.	.	.	.	.	.
8r	.	8B\	.	8B/	.	16bb 16b/	.	.	.	.	.	8B\	.	8r	.	.	.	.	16b\L	.	16b\L	.	.	.
.	.	.	.	.	.	16aaJJ 16a/	.	.	.	.	.	.	.	.	.	.	.	.	16b\JJ	.	16b\JJ	.	.	.
8E\	.	8e\	.	8g/	.	16ggLL 16g/	.	.	.	.	.	8r	.	8gg 8ee\	.	.	.	.	8b\L	.	8b\L	.	.	.
.	.	.	.	.	.	16aa 16a/	.	.	.	.	.	.	.	.	.	.	.	.	.	.	.	.	.	.
8r	.	8B\J	.	8B/J	.	16gg 16g/	.	.	.	.	.	8B\	.	8r	.	.	.	.	16b\L	.	16b\L	.	.	.
.	.	.	.	.	.	16ff#JJ 16f#/)	.	.	.	.	.	.	.	.	.	.	.	.	16b\JJ	.	16b\JJ	.	.	.
!!LO:PB:g=original
=52	=52	=52	=52	=52	=52	=52	=52	=52	=52	=52	=52	=52	=52	=52	=52	=52	=52	=52	=52	=52	=52	=52	=52	=52
*rep	*	*rep	*	*rep	*	*	*	*	*	*	*	*	*	*	*	*	*	*	*	*	*	*	*	*
!	!	!	!	!	!	!	!	!	!	!	!	!	!	!	!	!LO:TX:i:t=Ob&colon;	!	!	!LO:TX:i:t=Clar	!	!	!	!	!
8E\	.	8e\L	.	8g/L	.	(16eeLL 16e/	.	2.r	.	2.r	.	8r	.	8gg 8ee\	.	2.r	.	2.raa	8b\L	.	8b\L	.	2.r	.
.	.	.	.	.	.	16ff# 16f#/	.	.	.	.	.	.	.	.	.	.	.	.	.	.	.	.	.	.
8r	.	16B\L	.	16B/L	.	16ee 16e/	.	.	.	.	.	8B\	.	8r	.	.	.	.	16b\L	.	16b\L	.	.	.
.	.	16B\JJ	.	16B/JJ	.	16ff#JJ 16f#/	.	.	.	.	.	.	.	.	.	.	.	.	16b\JJ	.	16b\JJ	.	.	.
*	*	*	*	*	*	*	*	*	*	*	*	*	*	*	*	*	*	*	*rep	*	*rep	*	*	*
8E\	.	8e\L	.	8g/L	.	16eeLL 16e/	.	.	.	.	.	8r	.	8gg 8ee\	.	.	.	.	8b\L	.	8b\L	.	.	.
.	.	.	.	.	.	16dd#X 16d#X/	.	.	.	.	.	.	.	.	.	.	.	.	.	.	.	.	.	.
8r	.	8B\	.	8B/	.	16ee 16e/	.	.	.	.	.	8B\	.	8r	.	.	.	.	16b\L	.	16b\L	.	.	.
.	.	.	.	.	.	16ff#JJ 16f#/	.	.	.	.	.	.	.	.	.	.	.	.	16b\JJ	.	16b\JJ	.	.	.
*	*	*	*	*	*	*	*	*	*	*	*	*	*	*	*	*	*	*	*Xrep	*	*Xrep	*	*	*
*	*	*	*	*	*	*	*	*	*	*	*	*	*	*	*	*	*	*	*rep	*	*rep	*	*	*
8E\	.	8e\	.	8g/	.	16ggLL 16g/	.	.	.	.	.	8r	.	8gg 8ee\	.	.	.	.	8b\L	.	8b\L	.	.	.
.	.	.	.	.	.	16ff# 16f#/)	.	.	.	.	.	.	.	.	.	.	.	.	.	.	.	.	.	.
8r	.	8B\J	.	8B/J	.	16gg 16g/	.	.	.	.	.	8B\	.	8r	.	.	.	.	16b\L	.	16b\L	.	.	.
.	.	.	.	.	.	16eeJJ 16e/	.	.	.	.	.	.	.	.	.	.	.	.	16b\JJ	.	16b\JJ	.	.	.
*Xrep	*	*Xrep	*	*Xrep	*	*	*	*	*	*	*	*	*	*	*	*	*	*	*Xrep	*	*Xrep	*	*	*
=53	=53	=53	=53	=53	=53	=53	=53	=53	=53	=53	=53	=53	=53	=53	=53	=53	=53	=53	=53	=53	=53	=53	=53	=53
8BB/	.	8d#X\L	.	8f#/L	.	8ff# 8f#'/	.	2.r	.	2.r	.	8r	.	8ff# 8dd#X\	.	2.r	.	2.raa	8b\L	.	8b\L	.	2.r	.
8r	.	16B\L	.	16B/L	.	4bb 4b^/	sf	.	.	.	.	8B\	.	8r	.	.	.	.	16b\L	.	16b\L	.	.	.
.	.	16B\JJ	.	16B/JJ	.	.	.	.	.	.	.	.	.	.	.	.	.	.	16b\JJ	.	16b\JJ	.	.	.
*	*	*	*	*	*	*	*	*	*	*	*	*	*	*	*	*	*	*	*rep	*	*rep	*	*	*
8BB/	.	8d#\L	.	8f#/L	.	.	.	.	.	.	.	8r	.	8ff# 8dd#\	.	.	.	.	8b\L	.	8b\L	.	.	.
8r	.	8B\	.	8B/	.	8r	.	.	.	.	.	8B\	.	8r	.	.	.	.	16b\L	.	16b\L	.	.	.
.	.	.	.	.	.	.	.	.	.	.	.	.	.	.	.	.	.	.	16b\JJ	.	16b\JJ	.	.	.
*	*	*	*	*	*	*	*	*	*	*	*	*	*	*	*	*	*	*	*Xrep	*	*Xrep	*	*	*
*	*	*	*	*	*	*	*	*	*	*	*	*	*	*	*	*	*	*	*rep	*	*rep	*	*	*
8BB/	.	8d#\	.	8f#/	.	4r	.	.	.	.	.	8r	.	8ff# 8dd#\	.	.	.	.	8b\L	.	8b\L	.	.	.
8r	.	8B\J	.	8B/J	.	.	.	.	.	.	.	8B\	.	8r	.	.	.	.	16b\L	.	16b\L	.	.	.
.	.	.	.	.	.	.	.	.	.	.	.	.	.	.	.	.	.	.	16b\JJ	.	16b\JJ	.	.	.
*	*	*	*	*	*	*	*	*	*	*	*	*	*	*	*	*	*	*	*Xrep	*	*Xrep	*	*	*
=54	=54	=54	=54	=54	=54	=54	=54	=54	=54	=54	=54	=54	=54	=54	=54	=54	=54	=54	=54	=54	=54	=54	=54	=54
*	*	*	*	*	*	*	*	*	*	*	*	*	*	*	*	*^	*	*	*	*	*	*	*	*
*rep	*	*rep	*	*rep	*	*	*	*	*	*	*	*rep	*	*rep	*	*	*	*	*	*	*	*	*	*	*
8BB/	.	8d#X\L	.	8f#/L	.	2.r	.	2.r	.	2.r	.	8r	.	8ff# 8dd#X\	.	8ff#'/	8ff#\	.	8ff#/	8b\L	.	8b\L	.	8ff#'\	.
8r	.	16B\L	.	16B/L	.	.	.	.	.	.	.	8B\	.	8r	.	4bb^</	4bb\	.	4bb^/	16b\L	.	16b\L	.	4bb^<\	.
.	.	16B\JJ	.	16B/JJ	.	.	.	.	.	.	.	.	.	.	.	.	.	.	.	16b\JJ	.	16b\JJ	.	.	.
*	*	*	*	*	*	*	*	*	*	*	*	*	*	*	*	*	*	*	*	*rep	*	*rep	*	*	*
8BB/	.	8d#\L	.	8f#/L	.	.	.	.	.	.	.	8r	.	8ff# 8dd#\	.	.	.	.	.	8b\L	.	8b\L	.	.	.
8r	.	8B\	.	8B/	.	.	.	.	.	.	.	8B\	.	8r	.	8rdd	8rcyy	.	8raa	16b\L	.	16b\L	.	8r	.
.	.	.	.	.	.	.	.	.	.	.	.	.	.	.	.	.	.	.	.	16b\JJ	.	16b\JJ	.	.	.
*	*	*	*	*	*	*	*	*	*	*	*	*	*	*	*	*	*	*	*	*Xrep	*	*Xrep	*	*	*
*	*	*	*	*	*	*	*	*	*	*	*	*	*	*	*	*	*	*	*	*rep	*	*rep	*	*	*
8BB/	.	8d#\	.	8f#/	.	.	.	.	.	.	.	8r	.	8ff# 8dd#\	.	4rdd	4rcyy	.	4raa	8b\L	.	8b\L	.	4r	.
8r	.	8B\J	.	8B/J	.	.	.	.	.	.	.	8B\	.	8r	.	.	.	.	.	16b\L	.	16b\L	.	.	.
.	.	.	.	.	.	.	.	.	.	.	.	.	.	.	.	.	.	.	.	16b\JJ	.	16b\JJ	.	.	.
*Xrep	*	*Xrep	*	*Xrep	*	*	*	*	*	*	*	*Xrep	*	*Xrep	*	*	*	*	*	*Xrep	*	*Xrep	*	*	*
*	*	*	*	*	*	*	*	*	*	*	*	*	*	*	*	*v	*v	*	*	*	*	*	*	*	*
=55	=55	=55	=55	=55	=55	=55	=55	=55	=55	=55	=55	=55	=55	=55	=55	=55	=55	=55	=55	=55	=55	=55	=55	=55
*	*	*	*	*	*	*	*	*	*	*	*	*rep	*rep	*	*	*	*	*	*	*	*	*	*	*
!	!	!	!	!	!	!LO:TX:a:i:t=stacato	!	!	!	!	!	!	!	!	!	!	!	!	!	!	!	!	!	!
8E\	.	8e\L	.	8g/L	.	(16.bbLL 16.b\	.	2.r	.	2.r	.	8r	.	8gg 8ee\	.	2.r	.	2.raa	8b\L	.	8b\L	.	2.r	.
.	.	.	.	.	.	32cccK 32cc\	.	.	.	.	.	.	.	.	.	.	.	.	.	.	.	.	.	.
8r	.	16B\L	.	16B/L	.	16.bb 16.b\	.	.	.	.	.	8B\	.	8r	.	.	.	.	16b\L	.	16b\L	.	.	.
.	.	16B\JJ	.	16B/JJ	.	.	.	.	.	.	.	.	.	.	.	.	.	.	16b\JJ	.	16b\JJ	.	.	.
.	.	.	.	.	.	32cccJJk 32cc\	.	.	.	.	.	.	.	.	.	.	.	.	.	.	.	.	.	.
*	*	*tremolo	*	*tremolo	*	*	*	*	*	*	*	*	*	*	*	*	*	*	*rep	*	*rep	*	*	*
8E\	.	8e\L	.	8g/L	.	16.bbLL 16.b'\	.	.	.	.	.	8r	.	8gg 8ee\	.	.	.	.	8b\L	.	8b\L	.	.	.
.	.	.	.	.	.	32cccK 32cc\	.	.	.	.	.	.	.	.	.	.	.	.	.	.	.	.	.	.
8r	.	8B\	.	8B/	.	16.bb 16.b'\	.	.	.	.	.	8B\	.	8r	.	.	.	.	16b\L	.	16b\L	.	.	.
.	.	.	.	.	.	.	.	.	.	.	.	.	.	.	.	.	.	.	16b\JJ	.	16b\JJ	.	.	.
.	.	.	.	.	.	32aaJJk 32a'\	.	.	.	.	.	.	.	.	.	.	.	.	.	.	.	.	.	.
*	*	*	*	*	*	*	*	*	*	*	*	*	*	*	*	*	*	*	*Xrep	*	*Xrep	*	*	*
*	*	*	*	*	*	*	*	*	*	*	*	*	*	*	*	*	*	*	*rep	*	*rep	*	*	*
8E\	.	8e\	.	8g/	.	16.ggLL 16.g'\	.	.	.	.	.	8r	.	8gg 8ee\	.	.	.	.	8b\L	.	8b\L	.	.	.
.	.	.	.	.	.	32aaK 32a'\	.	.	.	.	.	.	.	.	.	.	.	.	.	.	.	.	.	.
8r	.	8B\J	.	8B/J	.	16.gg 16.g'\	.	.	.	.	.	8B\	.	8r	.	.	.	.	16b\L	.	16b\L	.	.	.
.	.	.	.	.	.	.	.	.	.	.	.	.	.	.	.	.	.	.	16b\JJ	.	16b\JJ	.	.	.
.	.	.	.	.	.	32ff#JJk 32f#'\)	.	.	.	.	.	.	.	.	.	.	.	.	.	.	.	.	.	.
*	*	*Xtremolo	*	*Xtremolo	*	*	*	*	*	*	*	*Xrep	*Xrep	*	*	*	*	*	*Xrep	*	*Xrep	*	*	*
=56	=56	=56	=56	=56	=56	=56	=56	=56	=56	=56	=56	=56	=56	=56	=56	=56	=56	=56	=56	=56	=56	=56	=56	=56
*	*	*	*	*	*	*	*	*	*	*	*	*	*	*	*	*	*	*	*	*	*^	*	*	*
*rep	*	*rep	*	*rep	*	*	*	*	*	*	*	*rep	*	*rep	*	*	*	*	*	*	*	*	*	*	*
8E\	.	8e\L	.	8g/L	.	16.eeLL 16.e\	.	2.r	.	2.r	.	8r	.	8gg 8ee\	.	2.r	.	2.raa	8b\L	.	2.raa	8b\L	.	2.r	.
.	.	.	.	.	.	32ff#K 32f#\	.	.	.	.	.	.	.	.	.	.	.	.	.	.	.	.	.	.	.
8r	.	16B\L	.	16B/L	.	16.ee 16.e\	.	.	.	.	.	8B\	.	8r	.	.	.	.	16b\L	.	.	16b\L	.	.	.
.	.	16B\JJ	.	16B/JJ	.	.	.	.	.	.	.	.	.	.	.	.	.	.	16b\JJ	.	.	16b\JJ	.	.	.
.	.	.	.	.	.	32ff#JJk 32f#\	.	.	.	.	.	.	.	.	.	.	.	.	.	.	.	.	.	.	.
*	*	*tremolo	*	*tremolo	*	*	*	*	*	*	*	*	*	*	*	*	*	*	*rep	*	*	*rep	*	*	*
8E\	.	8e\L	.	8g/L	.	16.eeLL 16.e/	.	.	.	.	.	8r	.	8gg 8ee\	.	.	.	.	8b\L	.	.	8b\L	.	.	.
.	.	.	.	.	.	32dd#XK 32d#X/	.	.	.	.	.	.	.	.	.	.	.	.	.	.	.	.	.	.	.
8r	.	8B\	.	8B/	.	16.ee 16.e/	.	.	.	.	.	8B\	.	8r	.	.	.	.	16b\L	.	.	16b\L	.	.	.
.	.	.	.	.	.	.	.	.	.	.	.	.	.	.	.	.	.	.	16b\JJ	.	.	16b\JJ	.	.	.
.	.	.	.	.	.	32ff#JJk 32f#/	.	.	.	.	.	.	.	.	.	.	.	.	.	.	.	.	.	.	.
*	*	*	*	*	*	*	*	*	*	*	*	*	*	*	*	*	*	*	*Xrep	*	*	*Xrep	*	*	*
*	*	*	*	*	*	*	*	*	*	*	*	*	*	*	*	*	*	*	*rep	*	*	*rep	*	*	*
8E\	.	8e\	.	8g/	.	16.ggLL 16.g/	.	.	.	.	.	8r	.	8gg 8ee\	.	.	.	.	8b\L	.	.	8b\L	.	.	.
.	.	.	.	.	.	32ff#K 32f#/	.	.	.	.	.	.	.	.	.	.	.	.	.	.	.	.	.	.	.
8r	.	8B\J	.	8B/J	.	16.gg 16.g/	.	.	.	.	.	8B\	.	8r	.	.	.	.	16b\L	.	.	16b\L	.	.	.
.	.	.	.	.	.	.	.	.	.	.	.	.	.	.	.	.	.	.	16b\JJ	.	.	16b\JJ	.	.	.
.	.	.	.	.	.	32eeJJk 32e/	.	.	.	.	.	.	.	.	.	.	.	.	.	.	.	.	.	.	.
*	*	*Xtremolo	*	*Xtremolo	*	*	*	*	*	*	*	*	*	*Xrep	*	*	*	*	*Xrep	*	*	*Xrep	*	*	*
*Xrep	*	*Xrep	*	*Xrep	*	*	*	*	*	*	*	*Xrep	*	*	*	*	*	*	*	*	*	*	*	*	*
*	*	*	*	*	*	*	*	*	*	*	*	*	*	*	*	*	*	*	*	*	*v	*v	*	*	*
=57	=57	=57	=57	=57	=57	=57	=57	=57	=57	=57	=57	=57	=57	=57	=57	=57	=57	=57	=57	=57	=57	=57	=57	=57
*	*	*	*	*	*	*	*	*	*	*	*	*rep	*	*	*	*	*	*	*	*	*	*	*	*
8BB/	.	8d#X\L	.	8f#/L	.	8ff# 8f#/	.	2.ryy	.	2.ryy	.	8r	.	8ff# 8dd#X\	.	2.r	.	2.raa	8b\L	.	8b\L	.	2.r	.
!	!	!	!	!	!	!	!LO:DY:a	!	!	!	!	!	!	!	!	!	!	!	!	!	!	!	!	!
8r	.	16B\L	.	16B/L	.	4b 4B^>/	sf	.	.	.	.	8B\	.	8r	.	.	.	.	16b\L	.	16b\L	.	.	.
.	.	16B\JJ	.	16B/JJ	.	.	.	.	.	.	.	.	.	.	.	.	.	.	16b\JJ	.	16b\JJ	.	.	.
*	*	*	*	*	*	*	*	*	*	*	*	*	*	*	*	*	*	*	*rep	*	*rep	*	*	*
8BB/	.	8d#\L	.	8f#/L	.	.	.	.	.	.	.	8r	.	8ff# 8dd#\	.	.	.	.	8b\L	.	8b\L	.	.	.
8r	.	8B\	.	8B/	.	8r	.	.	.	.	.	8B\	.	8r	.	.	.	.	16b\L	.	16b\L	.	.	.
.	.	.	.	.	.	.	.	.	.	.	.	.	.	.	.	.	.	.	16b\JJ	.	16b\JJ	.	.	.
*	*	*	*	*	*	*	*	*	*	*	*	*	*	*	*	*	*	*	*Xrep	*	*Xrep	*	*	*
*	*	*	*	*	*	*	*	*	*	*	*	*	*	*	*	*	*	*	*rep	*	*rep	*	*	*
8BB/	.	8d#\	.	8f#/	.	4r	.	.	.	.	.	8r	.	8ff# 8dd#\	.	.	.	.	8b\L	.	8b\L	.	.	.
8r	.	8B\J	.	8B/J	.	.	.	.	.	.	.	8B\	.	8r	.	.	.	.	16b\L	.	16b\L	.	.	.
.	.	.	.	.	.	.	.	.	.	.	.	.	.	.	.	.	.	.	16b\JJ	.	16b\JJ	.	.	.
*	*	*	*	*	*	*	*	*	*	*	*	*Xrep	*	*	*	*	*	*	*Xrep	*	*Xrep	*	*	*
=58	=58	=58	=58	=58	=58	=58	=58	=58	=58	=58	=58	=58	=58	=58	=58	=58	=58	=58	=58	=58	=58	=58	=58	=58
*	*	*	*	*	*	*	*	*	*	*	*	*	*	*	*	*^	*	*	*	*	*	*	*	*
*rep	*	*rep	*	*rep	*	*	*	*	*	*	*	*rep	*	*rep	*	*	*	*	*	*	*	*	*	*	*
8BB/	.	8d#X\L	.	8f#/L	.	2.r	.	2.ryy	.	2.ryy	.	8r	.	8ff# 8dd#X\	.	8ff#\	8rcyy	.	8ff#/	8b\L	.	8b\L	.	8fff#\	.
8r	.	16B\L	.	16B/L	.	.	.	.	.	.	.	8B\	.	8r	.	4b/	4b\	.	4b^>/	16b\L	.	16b\L	.	4bb^<\	.
.	.	16B\JJ	.	16B/JJ	.	.	.	.	.	.	.	.	.	.	.	.	.	.	.	16b\JJ	.	16b\JJ	.	.	.
*	*	*	*	*	*	*	*	*	*	*	*	*	*	*	*	*	*	*	*	*rep	*	*rep	*	*	*
8BB/	.	8d#\L	.	8f#/L	.	.	.	.	.	.	.	8r	.	8ff# 8dd#\	.	.	.	.	.	8b\L	.	8b\L	.	.	.
8r	.	8B\	.	8B/	.	.	.	.	.	.	.	8B\	.	8r	.	8r	8rcyy	.	8raa	16b\L	.	16b\L	.	8r	.
.	.	.	.	.	.	.	.	.	.	.	.	.	.	.	.	.	.	.	.	16b\JJ	.	16b\JJ	.	.	.
*	*	*	*	*	*	*	*	*	*	*	*	*	*	*	*	*	*	*	*	*Xrep	*	*Xrep	*	*	*
*	*	*	*	*	*	*	*	*	*	*	*	*	*	*	*	*	*	*	*	*rep	*	*rep	*	*	*
8BB/	.	8d#\	.	8f#/	.	.	.	.	.	.	.	8r	.	8ff# 8dd#\	.	4r	4rcyy	.	4raa	8b\L	.	8b\L	.	4r	.
8r	.	8B\J	.	8B/J	.	.	.	.	.	.	.	8B\	.	8r	.	.	.	.	.	16b\L	.	16b\L	.	.	.
.	.	.	.	.	.	.	.	.	.	.	.	.	.	.	.	.	.	.	.	16b\JJ	.	16b\JJ	.	.	.
*Xrep	*	*Xrep	*	*Xrep	*	*	*	*	*	*	*	*Xrep	*	*Xrep	*	*	*	*	*	*Xrep	*	*Xrep	*	*	*
*	*	*	*	*	*	*	*	*	*	*	*	*	*	*	*	*v	*v	*	*	*	*	*	*	*	*
=59	=59	=59	=59	=59	=59	=59	=59	=59	=59	=59	=59	=59	=59	=59	=59	=59	=59	=59	=59	=59	=59	=59	=59	=59
8GG/	.	8dn\L	.	8g/L	.	8B/L	.	2.ryy	.	2.ryy	.	8BL 8G\	.	8gg 8ddn\	.	8gg 8b\	.	8gg/	8b\	.	8b\	.	8ggg\L	.
.	.	.	.	.	.	.	.	.	.	.	.	.	.	.	.	.	.	.	.	.	.	.	16qqaa/	.
8r	.	16dL 16B^\	.	16B/L	.	16d^/L	.	.	.	.	.	16dL 16B\	.	8r	.	8r	.	8rgg	8r	.	8r	.	(16gg\L	.
.	.	16dJJ 16B\	.	16B/JJ	.	16d/JJ	.	.	.	.	.	16dJJ 16B\	.	.	.	.	.	.	.	.	.	.	16ff#\JJ)	.
8G\	.	8BL 8G\	.	8G/L	.	8B/L	.	.	.	.	.	8BL 8G\	.	4r	.	4r	.	4rgg	4r	.	4r	.	16gg\LL	.
.	.	.	.	.	.	.	.	.	.	.	.	.	.	.	.	.	.	.	.	.	.	.	16aa'\	.
8r	.	8d 8B\	.	8B/	.	8d/	.	.	.	.	.	8d 8B\	.	.	.	.	.	.	.	.	.	.	16bb'\	.
.	.	.	.	.	.	.	.	.	.	.	.	.	.	.	.	.	.	.	.	.	.	.	16cccn'\JJ	.
8G\	.	8B 8G\	.	8G/	.	8B/	.	.	.	.	.	8B 8G\	.	4r	.	4r	.	4rgg	4r	.	8r	.	8ddd'\L	.
8r	.	8dJ 8B\	.	8B/J	.	8d/J	.	.	.	.	.	8dJ 8B\	.	.	.	.	.	.	.	.	8gg\	.	8bb'\J	.
*	*	*	*	*	*	*	*	*	*	*	*	*	*	*	*	*	*	*v	*v	*	*	*	*	*
!!LO:PB:g=original
=60	=60	=60	=60	=60	=60	=60	=60	=60	=60	=60	=60	=60	=60	=60	=60	=60	=60	=60	=60	=60	=60	=60	=60
*	*	*	*	*	*	*	*	*	*	*	*	*rep	*	*	*	*	*	*	*	*	*	*	*
8G\	.	8BL 8G\	.	8G/L	.	8B/L	.	2.r	.	2.r	.	8BL 8G\	.	2.r	.	2.r	.	8r	.	8bb\L	.	8ddd'\L	.
8r	.	16dL 16B\	.	16B/L	.	16d/L	.	.	.	.	.	16dL 16B\	.	.	.	.	.	8bL 8g/	.	8gg~\	.	8bb'\	.
.	.	16dJJ 16B\	.	16B/JJ	.	16d/JJ	.	.	.	.	.	16dJJ 16B\	.	.	.	.	.	.	.	.	.	.	.
*	*	*tremolo	*	*tremolo	*	*tremolo	*	*	*	*	*	*	*	*	*	*	*	*	*	*	*	*	*
8G\	.	8BL 8G\	.	8G/L	.	8B/L	.	.	.	.	.	8BL 8G\	.	.	.	.	.	8dd 8b/	.	8bb\	.	8ddd'\	.
8r	.	8d 8B\	.	8B/	.	8d/	.	.	.	.	.	8d 8B\	.	.	.	.	.	8b 8g/	.	8gg\	.	8bb'\	.
8G\	.	8B 8G\	.	8G/	.	8B/	.	.	.	.	.	8B 8G\	.	.	.	.	.	8dd 8b/	.	8bb\	.	8ddd'\	.
8r	.	8dJ 8B\	.	8B/J	.	8d/J	.	.	.	.	.	8dJ 8B\	.	.	.	.	.	8bJ 8g/	.	8gg\J	.	8bb'\J	.
*	*	*Xtremolo	*	*Xtremolo	*	*Xtremolo	*	*	*	*	*	*Xrep	*	*	*	*	*	*	*	*	*	*	*
=61	=61	=61	=61	=61	=61	=61	=61	=61	=61	=61	=61	=61	=61	=61	=61	=61	=61	=61	=61	=61	=61	=61	=61
*rep	*	*rep	*	*	*	*	*	*	*	*	*	*rep	*	*	*	*	*	*	*	*	*	*	*
8G\	.	8BL 8G\	.	8G/L	.	8B/L	.	2.r	.	2.r	.	8BL 8G\	.	2.r	.	4r	.	8dd 8b\	.	8bb\	.	8ddd\	.
8r	.	16dL 16B\	.	16B/L	.	16d/L	.	.	.	.	.	16dL 16B\	.	.	.	.	.	8r	.	8r	.	8r	.
.	.	16dJJ 16B\	.	16B/JJ	.	16d/JJ	.	.	.	.	.	16dJJ 16B\	.	.	.	.	.	.	.	.	.	.	.
8G\	.	8BL 8G\	.	8G/L	.	8B/L	.	.	.	.	.	8BL 8G\	.	.	.	2bb 2gg^<\	.	2gg 2b^<\	.	4.bb^<\	.	4.ggg^<\	.
8r	.	8d 8B\	.	8B/	.	8d/J	.	.	.	.	.	8d 8B\	.	.	.	.	.	.	.	.	.	.	.
!	!	!	!	!	!	!LO:TX:t=P:problem=mixed beam	!	!	!	!	!	!	!	!	!	!	!	!	!	!	!	!	!
8G\	.	8B 8G\	.	8G/	.	8g/L	.	.	.	.	.	8B 8G\	.	.	.	.	.	.	.	.	.	.	.
8r	.	8dJ 8B\	.	8dJ 8B/	.	(16gg/L	.	.	.	.	.	8dJ 8B\	.	.	.	.	.	.	.	8r	.	16gg\LL	.
.	.	.	.	.	.	16bb/JJ)	.	.	.	.	.	.	.	.	.	.	.	.	.	.	.	16bb\JJ	.
*Xrep	*	*Xrep	*	*	*	*	*	*	*	*	*	*Xrep	*	*	*	*	*	*	*	*	*	*	*
=62	=62	=62	=62	=62	=62	=62	=62	=62	=62	=62	=62	=62	=62	=62	=62	=62	=62	=62	=62	=62	=62	=62	=62
*	*	*	*	*	*	*	*	*	*	*	*	*	*	*^	*	*^	*	*	*	*	*	*	*
8D\	.	8AL 8F#\	.	8A/L	.	(16aa\LL	.	2.r	.	2.r	.	8cL 8A\	.	8ff#/	8dd\	p	8rdd	8rcyy	.	8r	.	2.r	.	(16aa\LL	.
.	.	.	.	.	.	16ccc\JJ)	.	.	.	.	.	.	.	.	.	.	.	.	.	.	.	.	.	16ccc\JJ)	.
!	!	!	!	!	!	!	!	!	!	!	!	!	!	!	!	!	!	!	!	!	!LO:DY:a	!	!	!	!
8r	.	16dL 16A\	.	16dL 16c/	.	4dd'^<\	.	.	.	.	.	16dL 16c\	.	8r	8rdyy	.	4dd^</	4dd\	p	8cc 8a\	p	.	.	4dd^<\	.
.	.	16dJJ 16A\	.	16dJJ 16c/	.	.	.	.	.	.	.	16dJJ 16c\	.	.	.	.	.	.	.	.	.	.	.	.	.
*	*	*tremolo	*	*	*	*	*	*	*	*	*	*	*	*	*	*	*	*	*	*	*	*	*	*	*
8D\	.	8AL 8F#\	.	8A/L	.	.	.	.	.	.	.	8cL 8A\	.	8ff#/	8dd\	.	.	.	.	8r	.	.	.	.	.
8r	.	8d 8A\	.	8d 8c/	.	(16ff#\LL	.	.	.	.	.	8d 8c\	.	8r	8rdyy	.	8rdd	8rcyy	.	8cc 8a\	.	.	.	(16ff#\LL	.
.	.	.	.	.	.	16aa\JJ)	.	.	.	.	.	.	.	.	.	.	.	.	.	.	.	.	.	16aa\JJ)	.
8D\	.	8A 8F#\	.	8A/	.	8ccc'\L	.	.	.	.	.	8c 8A\	.	8ff#/	8dd\	.	4rdd	4rcyy	.	8r	.	.	.	8ccc'\L	.
8r	.	8dJ 8A\	.	8dJ 8c/	.	(16ff#\L	.	.	.	.	.	8dJ 8c\	.	8r	8rdyy	.	.	.	.	8cc 8a\	.	.	.	(16ff#\L	.
.	.	.	.	.	.	16aa\JJ)	.	.	.	.	.	.	.	.	.	.	.	.	.	.	.	.	.	16aa\JJ)	.
*	*	*Xtremolo	*	*	*	*	*	*	*	*	*	*	*	*	*	*	*	*	*	*	*	*	*	*	*
*	*	*	*	*	*	*	*	*	*	*	*	*	*	*v	*v	*	*	*	*	*	*	*	*	*	*
=63	=63	=63	=63	=63	=63	=63	=63	=63	=63	=63	=63	=63	=63	=63	=63	=63	=63	=63	=63	=63	=63	=63	=63	=63
8G\	.	8BL 8G\	.	8G/L	.	16gg\LL	.	2.r	.	2.r	.	8BL 8G\	.	8gg 8dd\	.	8rdd	8rcyy	.	8r	.	2.r	.	(16gg\LL	.
.	.	.	.	.	.	16bb\JJ	.	.	.	.	.	.	.	.	.	.	.	.	.	.	.	.	16bb\JJ)	.
8r	.	16dL 16B\	.	16dL 16B/	.	4ddd^<\	.	.	.	.	.	16dL 16B\	.	8r	.	4dd/	4dd^\	.	8b 8g/	.	.	.	4ddd^<\	.
.	.	16dJJ 16B\	.	16dJJ 16B/	.	.	.	.	.	.	.	16dJJ 16B\	.	.	.	.	.	.	.	.	.	.	.	.
*	*	*tremolo	*	*tremolo	*	*	*	*	*	*	*	*tremolo	*	*	*	*	*	*	*	*	*	*	*	*
8G\	.	8BL 8G\	.	8G/L	.	.	.	.	.	.	.	8BL 8G\	.	8gg 8dd\	.	.	.	.	8r	.	.	.	.	.
8r	.	8d 8B\	.	8d 8B/	.	16gg\LL	.	.	.	.	.	8d 8B\	.	8r	.	8rdd	8rcyy	.	8b 8g/	.	.	.	(16gg\LL	.
.	.	.	.	.	.	16bb\JJ	.	.	.	.	.	.	.	.	.	.	.	.	.	.	.	.	16bb\JJ)	.
!	!	!	!	!	!	!LO:TX:t=P:problem=mixed beam	!	!	!	!	!	!	!	!	!	!	!	!	!	!	!	!	!	!
8G\	.	8B 8G\	.	8G/	.	8g/L	.	.	.	.	.	8B 8G\	.	8gg 8dd\	.	4rdd	4rcyy	.	8r	.	.	.	8ggg\L	.
8r	.	8dJ 8B\	.	8dJ 8B/	.	16gg/L	.	.	.	.	.	8dJ 8B\	.	8r	.	.	.	.	8b 8g/	.	.	.	(16gg\L	.
.	.	.	.	.	.	16bb/JJ	.	.	.	.	.	.	.	.	.	.	.	.	.	.	.	.	16bb\JJ)	.
*	*	*Xtremolo	*	*Xtremolo	*	*	*	*	*	*	*	*Xtremolo	*	*	*	*	*	*	*	*	*	*	*	*
=64	=64	=64	=64	=64	=64	=64	=64	=64	=64	=64	=64	=64	=64	=64	=64	=64	=64	=64	=64	=64	=64	=64	=64	=64
8D\	.	8AL 8F#\	.	8A/L	.	16aa\LL	.	2.r	.	2.r	.	8cL 8A\	.	8ff# 8dd\	.	8r	8rcyy	.	8r	.	2.r	.	16aa\LL	.
.	.	.	.	.	.	16ccc\JJ	.	.	.	.	.	.	.	.	.	.	.	.	.	.	.	.	16ccc\JJ	.
8r	.	16dL 16A\	.	16dL 16c/	.	4dd\	.	.	.	.	.	16dL 16c\	.	8r	.	4dd/	4dd^\	.	8cc 8a/	.	.	.	4dd\	.
.	.	16dJJ 16A\	.	16dJJ 16c/	.	.	.	.	.	.	.	16dJJ 16c\	.	.	.	.	.	.	.	.	.	.	.	.
*	*	*tremolo	*	*tremolo	*	*	*	*	*	*	*	*tremolo	*	*	*	*	*	*	*	*	*	*	*	*
8D\	.	8AL 8F#\	.	8A/L	.	.	.	.	.	.	.	8cL 8A\	.	8ff# 8dd\	.	.	.	.	8r	.	.	.	.	.
8r	.	8d 8A\	.	8d 8c/	.	16ff#\LL	.	.	.	.	.	8d 8c\	.	8r	.	8r	8rcyy	.	8cc 8a/	.	.	.	16ff#\LL	.
.	.	.	.	.	.	16aa\JJ	.	.	.	.	.	.	.	.	.	.	.	.	.	.	.	.	16aa\JJ	.
8D\	.	8A 8F#\	.	8A/	.	8ccc\L	.	.	.	.	.	8c 8A\	.	8ff# 8dd\	.	4r	4rcyy	.	8r	.	.	.	8ccc\L	.
8r	.	8dJ 8A\	.	8dJ 8c/	.	16dd\L	.	.	.	.	.	8dJ 8c\	.	8r	.	.	.	.	8cc 8a/	.	.	.	16dd\L	.
.	.	.	.	.	.	16ff#\JJ	.	.	.	.	.	.	.	.	.	.	.	.	.	.	.	.	16ff#\JJ	.
*	*	*Xtremolo	*	*Xtremolo	*	*	*	*	*	*	*	*Xtremolo	*	*	*	*	*	*	*	*	*	*	*	*
=65||	=65||	=65||	=65||	=65||	=65||	=65||	=65||	=65||	=65||	=65||	=65||	=65||	=65||	=65||	=65||	=65||	=65||	=65||	=65||	=65||	=65||	=65||	=65||	=65||
*>D1	*	*>D1	*	*>D1	*	*>D1	*	*>D1	*	*>D1	*	*>D1	*	*>D1	*	*>D1	*>D1	*	*>D1	*	*>D1	*	*>D1	*
!LO:TX:b:t=1ma	!	!LO:TX:a:t=1ma	!	!LO:TX:a:t=1ma	!	!	!	!	!	!	!	!	!	!	!	!	!	!	!	!	!LO:TX:t=P:problem=mixed beam	!	!	!
8G\	.	8BL 8G\	.	8G/L	.	8gg/L	f	2.r	.	2.r	.	8BL 8G\	.	8ggL 8dd\	f	8g/L	8g\L	f	8bL 8g/	f	8g/L	f	8gg\L	f
8r	.	16dL 16B\	.	16dL 16B/	.	8ggJ 8b 8d 8G/	.	.	.	.	.	16dL 16B\	.	8ggJ 8dd\	.	8ggJ 8b/	8b\J	.	8ggJ 8b/	.	8gg\J	.	8ggg\J	.
.	.	16dJJ 16B\	.	16dJJ 16B/	.	.	.	.	.	.	.	16dJJ 16B\	.	.	.	.	.	.	.	.	.	.	.	.
*	*	*tremolo	*	*tremolo	*	*	*	*	*	*	*	*tremolo	*	*	*	*	*	*	*	*	*	*	*	*
8G\	.	8BL 8G\	.	8G/L	.	4r	.	.	.	.	.	8BL 8G\	.	4r	.	4r	4rcyy	.	4r	.	4r	.	4r	.
8r	.	8d 8B\	.	8d 8B/	.	.	.	.	.	.	.	8d 8B\	.	.	.	.	.	.	.	.	.	.	.	.
8G\	.	8B 8G\	.	8G/	.	4r	.	.	.	.	.	8B 8G\	.	4r	.	4r	4rcyy	.	4r	.	4r	.	4r	.
8r	.	8dJ 8B\	.	8dJ 8B/	.	.	.	.	.	.	.	8dJ 8B\	.	.	.	.	.	.	.	.	.	.	.	.
*	*	*Xtremolo	*	*Xtremolo	*	*	*	*	*	*	*	*Xtremolo	*	*	*	*	*	*	*	*	*	*	*	*
=66:|!	=66:|!	=66:|!	=66:|!	=66:|!	=66:|!	=66:|!	=66:|!	=66:|!	=66:|!	=66:|!	=66:|!	=66:|!	=66:|!	=66:|!	=66:|!	=66:|!	=66:|!	=66:|!	=66:|!	=66:|!	=66:|!	=66:|!	=66:|!	=66:|!
*>D2	*	*>D2	*	*>D2	*	*>D2	*	*>D2	*	*>D2	*	*>D2	*	*>D2	*	*>D2	*>D2	*	*>D2	*	*>D2	*	*>D2	*
!LO:TX:t=P:problem=mixed beam	!	!	!	!	!	!	!	!	!	!	!	!	!	!	!	!	!	!	!	!	!	!	!	!
!LO:TX:b:i:t=Arco	!	!	!	!	!	!	!	!	!	!	!	!	!	!	!	!	!	!	!	!	!LO:TX:t=P:problem=mixed beam	!	!LO:TX:t=P:problem=te nuty drugiej volty, które powtarzają materiał pierwszej, zostały dla uproszczenia wykreślone	!
!LO:TX:a:t=2da	!	!LO:TX:a:t=2da	!	!LO:TX:a:t=2da	!	!	!	!	!	!	!	!	!	!	!	!	!	!	!	!	!	!	!	!
8GG/L	f	8G/L	f	8G/L	f	2.r	.	2.r	.	2.r	.	8BL 8G\	.	8ggL 8dd\	f	8g/L	8g\L	f	8bL 8g/	f	8g'/L	f	8gg\L	f
!	!	!	!	!	!	!	!	!	!	!	!	!LO:TX:b:i:t=dla fagotów iest \n2da Volta	!	!	!	!	!	!	!	!	!	!	!LO:TX:b:i:t=Polon Da Capo	!
8G\J	.	8bJ 8d 8G/	.	8ggJ 8b 8d 8G/	.	.	.	.	.	.	.	8BJ 8G\	.	8ggJ 8dd\	.	8ggJ 8b/	8b\J	.	8ggJ 8b/	.	8gg'\J	.	8ggg\J	.
4r	.	4r	.	4r	.	.	.	.	.	.	.	4r	.	4r	.	4r	4rcyy	.	4r	.	4r	.	4r	.
4r	.	4r	.	4r	.	.	.	.	.	.	.	4r	.	4r	.	4r	4rcyy	.	4r	.	4r	.	4r	.
*	*	*	*	*	*	*	*	*	*	*	*	*	*	*	*	*v	*v	*	*	*	*	*	*	*
==	==	==	==	==	==	==	==	==	==	==	==	==	==	==	==	==	==	==	==	==	==	==	==
*-	*-	*-	*-	*-	*-	*-	*-	*-	*-	*-	*-	*-	*-	*-	*-	*-	*-	*-	*-	*-	*-	*-	*-
!!!system-decoration: [(s1,s2,s3,s4,s5,s6,{s7,s8},s9,s10,s11,s12)]
!!!RDF**kern: > = above
!!!RDF**kern: < = below
!!!ENC: Mateusz Solarz
!!!END: 2021-06-01
